;FLAVOR:Marlin
;TIME:5465
;Filament used: 6.76524m
;Layer height: 0.2
;MINX:19.777
;MINY:47.373
;MINZ:0.2
;MAXX:178.575
;MAXY:112.169
;MAXZ:7
;TARGET_MACHINE.NAME:Anycubic Kobra Max
;Generated with Cura_SteamEngine 5.5.0
M140 S60
M105
M190 S60
M104 S195
M105
M109 S195
M82 ;absolute extrusion mode
G28 ;Home
G1 Z15.0 F1200 ;Move the platform down 15mm
;Prime the extruder
G92 E0
G1 F200 E3
G92 E0
G92 E0
G92 E0
G1 F2400 E-6
;LAYER_COUNT:35
;LAYER:0
M107
M204 S3000
M205 X10 Y10
G1 F1200 Z0.275
G0 F6000 X23.371 Y48.016 Z0.275
M204 S1000
M205 X8 Y8
;TYPE:SKIRT
G1 F1200 Z0.2
G1 F2400 E0
G1 X24.412 Y47.604 E0.05943
G1 X25.422 Y47.435 E0.11379
G1 X26.011 Y47.384 E0.14517
G1 X26.767 Y47.373 E0.18531
G1 X171.634 Y47.373 E7.87531
G1 X172.442 Y47.391 E7.91821
G1 X173.389 Y47.505 E7.96884
G1 X174.224 Y47.702 E8.01438
G1 X175.35 Y48.204 E8.07983
G1 X176.073 Y48.707 E8.12658
G1 X176.855 Y49.398 E8.18198
G1 X177.582 Y50.335 E8.24493
G1 X178.085 Y51.339 E8.30454
G1 X178.352 Y52.13 E8.34886
G1 X178.463 Y52.644 E8.37677
G1 X178.553 Y53.422 E8.41834
G1 X178.575 Y54.549 E8.47818
G1 X178.574 Y105.281 E11.1712
G1 X178.556 Y106.124 E11.21595
G1 X178.455 Y106.948 E11.26002
G1 X178.218 Y107.89 E11.31159
G1 X177.732 Y108.963 E11.37411
G1 X177.095 Y109.843 E11.43178
G1 X176.389 Y110.594 E11.4865
G1 X175.7 Y111.099 E11.53184
G1 X174.722 Y111.649 E11.5914
G1 X173.875 Y111.936 E11.63888
G1 X172.708 Y112.149 E11.70185
G1 X171.538 Y112.169 E11.76396
G1 X26.72 Y112.169 E19.45136
G1 X25.994 Y112.156 E19.48991
G1 X25.204 Y112.08 E19.53204
G1 X24.268 Y111.884 E19.5828
G1 X23.366 Y111.51 E19.63464
G1 X22.632 Y111.11 E19.67901
G1 X21.733 Y110.386 E19.74028
G1 X21.123 Y109.679 E19.78985
G1 X20.659 Y108.987 E19.83408
G1 X20.256 Y108.169 E19.88248
G1 X19.976 Y107.347 E19.92858
G1 X19.793 Y106.355 E19.98213
G1 X19.777 Y105.449 E20.03023
G1 X19.777 Y54.278 E22.74655
G1 X19.793 Y53.528 E22.78637
G1 X19.884 Y52.703 E22.83043
G1 X20.062 Y51.921 E22.873
G1 X20.259 Y51.366 E22.90426
G1 X20.777 Y50.326 E22.96594
G1 X21.518 Y49.37 E23.03014
G1 X22.427 Y48.607 E23.09314
G1 X23.371 Y48.016 E23.15226
M204 S3000
M205 X10 Y10
G0 F6000 X23.625 Y48.518
M204 S1000
M205 X8 Y8
G1 F2400 X24.565 Y48.146 E23.20593
G1 X25.472 Y47.993 E23.25475
G1 X26.019 Y47.944 E23.28391
G1 X26.775 Y47.933 E23.32404
G1 X171.624 Y47.933 E31.01309
G1 X172.377 Y47.947 E31.05306
G1 X173.261 Y48.05 E31.10031
G1 X174.046 Y48.235 E31.14312
G1 X175.07 Y48.692 E31.20264
G1 X175.753 Y49.167 E31.24681
G1 X176.445 Y49.783 E31.29598
G1 X177.106 Y50.635 E31.35323
G1 X177.555 Y51.52 E31.40591
G1 X177.805 Y52.251 E31.44692
G1 X177.907 Y52.71 E31.47188
G1 X177.993 Y53.433 E31.51052
G1 X178.015 Y54.549 E31.56978
G1 X178.014 Y105.271 E34.26226
G1 X178 Y106.059 E34.3041
G1 X177.912 Y106.811 E34.34429
G1 X177.687 Y107.705 E34.39323
G1 X177.245 Y108.681 E34.4501
G1 X176.687 Y109.46 E34.50097
G1 X176.019 Y110.171 E34.55275
G1 X175.369 Y110.647 E34.59552
G1 X174.493 Y111.135 E34.64875
G1 X173.774 Y111.385 E34.68916
G1 X172.652 Y111.59 E34.7497
G1 X171.529 Y111.609 E34.80932
G1 X26.729 Y111.609 E42.49577
G1 X26.045 Y111.598 E42.53208
G1 X25.319 Y111.532 E42.57078
G1 X24.435 Y111.347 E42.61872
G1 X23.634 Y111.018 E42.66469
G1 X22.942 Y110.641 E42.70652
G1 X22.125 Y109.983 E42.7622
G1 X21.547 Y109.313 E42.80917
G1 X21.126 Y108.678 E42.84962
G1 X20.785 Y107.985 E42.89062
G1 X20.527 Y107.245 E42.93222
G1 X20.352 Y106.297 E42.98339
G1 X20.337 Y105.439 E43.02894
G1 X20.337 Y54.288 E45.7442
G1 X20.35 Y53.589 E45.78131
G1 X20.441 Y52.764 E45.82537
G1 X20.59 Y52.108 E45.86108
G1 X20.787 Y51.553 E45.89234
G1 X21.253 Y50.625 E45.94747
G1 X21.921 Y49.764 E46.00531
G1 X22.724 Y49.082 E46.06124
G1 X23.625 Y48.518 E46.11766
M204 S3000
M205 X10 Y10
G0 F6000 X23.879 Y49.02
M204 S1000
M205 X8 Y8
G1 F2400 X24.718 Y48.688 E46.16556
G1 X25.524 Y48.551 E46.20896
G1 X26.027 Y48.504 E46.23578
G1 X26.783 Y48.493 E46.27591
G1 X171.616 Y48.493 E53.96411
G1 X172.314 Y48.503 E54.00116
G1 X173.132 Y48.595 E54.04486
G1 X173.869 Y48.769 E54.08506
G1 X174.79 Y49.18 E54.13859
G1 X175.433 Y49.627 E54.18016
G1 X176.034 Y50.167 E54.22305
G1 X176.632 Y50.938 E54.27485
G1 X177.026 Y51.703 E54.32052
G1 X177.259 Y52.376 E54.35833
G1 X177.351 Y52.778 E54.38022
G1 X177.433 Y53.444 E54.41584
G1 X177.455 Y54.549 E54.47451
G1 X177.454 Y105.261 E57.16646
G1 X177.44 Y106.049 E57.2083
G1 X177.369 Y106.674 E57.24169
G1 X177.156 Y107.52 E57.288
G1 X176.757 Y108.401 E57.33934
G1 X176.279 Y109.077 E57.38329
G1 X175.649 Y109.748 E57.43215
G1 X175.038 Y110.195 E57.47233
G1 X174.264 Y110.622 E57.51926
G1 X173.59 Y110.856 E57.55713
G1 X172.6 Y111.031 E57.6105
G1 X171.52 Y111.049 E57.66783
G1 X26.737 Y111.049 E65.35338
G1 X26.092 Y111.04 E65.38762
G1 X25.434 Y110.984 E65.42267
G1 X24.6 Y110.809 E65.46791
G1 X23.902 Y110.526 E65.50789
G1 X23.251 Y110.172 E65.54723
G1 X22.516 Y109.58 E65.59732
G1 X22.012 Y109.001 E65.63807
G1 X21.627 Y108.428 E65.67472
G1 X21.314 Y107.801 E65.71192
G1 X21.056 Y107.061 E65.75352
G1 X20.911 Y106.244 E65.79756
G1 X20.897 Y105.429 E65.84083
G1 X20.897 Y54.297 E68.55508
G1 X20.907 Y53.65 E68.58943
G1 X20.998 Y52.825 E68.63349
G1 X21.118 Y52.295 E68.66234
G1 X21.315 Y51.74 E68.6936
G1 X21.727 Y50.928 E68.74193
G1 X22.328 Y50.153 E68.79399
G1 X23.021 Y49.557 E68.84251
G1 X23.879 Y49.02 E68.89624
M204 S3000
M205 X10 Y10
G1 F2400 E62.89624
;MESH:Stopuhr-V04.stl
G0 F6000 X24.94 Y51.42
G0 X25.379 Y52.412
G0 X25.868 Y52.746
M204 S1000
M205 X8 Y8
;TYPE:WALL-INNER
G1 F2400 E68.89624
G1 F2021.4 X25.629 Y52.875 E68.9155
G1 F1973.9 X25.262 Y53.252 E68.9537
G1 F2013.3 X25.182 Y53.391 E68.96512
M204 S3000
M205 X10 Y10
G0 F6000 X25.23 Y54.864
G0 X25.377 Y55.511
G0 X34.769 Y72.319
G0 X35.32 Y73.217
G0 X36.136 Y74.186
G0 X36.924 Y74.879
G0 X37.607 Y75.368
G0 X38.159 Y76.103
G0 X42.65 Y77.675
M204 S1000
M205 X8 Y8
G1 F2700 X41.475 Y77.646 E69.02751
G1 X40.308 Y77.496 E69.08997
G1 X39.251 Y77.204 E69.14818
G1 X38.085 Y76.751 E69.21458
G1 X37.078 Y76.17 E69.2763
G1 X36.373 Y75.667 E69.32227
G1 X35.447 Y74.86 E69.38747
G1 X34.539 Y73.782 E69.46229
G1 X33.921 Y72.777 E69.52492
G1 X33.417 Y71.732 E69.5865
G1 X32.998 Y70.385 E69.66139
G1 X32.785 Y68.989 E69.73635
G1 X32.79 Y67.753 E69.80196
G1 X32.891 Y66.795 E69.85309
G1 X33.105 Y65.738 E69.91034
G1 X33.583 Y64.419 E69.98481
G1 X34.145 Y63.38 E70.04752
G1 X34.814 Y62.404 E70.11033
G1 X35.546 Y61.606 E70.16781
G1 X36.259 Y60.966 E70.21867
G1 X37.06 Y60.381 E70.27133
G1 X38.069 Y59.796 E70.33324
G1 X39.169 Y59.362 E70.39601
G1 X40.291 Y59.045 E70.4579
G1 X41.688 Y58.866 E70.53266
G1 X42.95 Y58.903 E70.59968
G1 X44.037 Y59.039 E70.65783
G1 X45.219 Y59.378 E70.72311
G1 X46.257 Y59.783 E70.78225
G1 X47.208 Y60.333 E70.84057
G1 X48.029 Y60.914 E70.89396
G1 X48.909 Y61.69 E70.95624
G1 X49.664 Y62.586 E71.01844
G1 X50.318 Y63.549 E71.08023
G1 X50.925 Y64.804 E71.15424
G1 X51.346 Y66.151 E71.22915
G1 X51.527 Y67.312 E71.29152
G1 X51.574 Y68.182 E71.33777
G1 X51.521 Y69.434 E71.40429
G1 X51.24 Y70.814 E71.47905
G1 X50.753 Y72.154 E71.55473
G1 X50.165 Y73.218 E71.61927
G1 X49.542 Y74.129 E71.67785
G1 X48.765 Y74.975 E71.73883
G1 X48.049 Y75.61 E71.78963
G1 X47.085 Y76.306 E71.85274
G1 X46.111 Y76.807 E71.91088
G1 X45.165 Y77.183 E71.96492
G1 X44.044 Y77.496 E72.02671
G1 X42.65 Y77.675 E72.10131
M204 S3000
M205 X10 Y10
G0 F6000 X42.655 Y77.111
M204 S1000
M205 X8 Y8
G1 F2700 X41.514 Y77.087 E72.16189
G1 X40.421 Y76.948 E72.22038
G1 X39.406 Y76.666 E72.2763
G1 X38.336 Y76.253 E72.33718
G1 X37.383 Y75.701 E72.39564
G1 X36.645 Y75.168 E72.44397
G1 X35.853 Y74.473 E72.4999
G1 X34.991 Y73.448 E72.571
G1 X34.436 Y72.546 E72.62721
G1 X33.938 Y71.522 E72.68766
G1 X33.546 Y70.262 E72.75771
G1 X33.345 Y68.953 E72.82801
G1 X33.347 Y67.808 E72.88879
G1 X33.427 Y66.992 E72.93231
G1 X33.647 Y65.887 E72.99212
G1 X34.098 Y64.644 E73.06231
G1 X34.626 Y63.67 E73.12112
G1 X35.242 Y62.763 E73.17932
G1 X35.988 Y61.955 E73.2377
G1 X36.651 Y61.368 E73.2847
G1 X37.402 Y60.83 E73.33374
G1 X38.319 Y60.299 E73.38999
G1 X39.387 Y59.882 E73.45085
G1 X40.434 Y59.591 E73.50854
G1 X41.725 Y59.426 E73.57763
G1 X42.88 Y59.459 E73.63896
G1 X43.919 Y59.589 E73.69455
G1 X44.936 Y59.873 E73.7506
G1 X46.016 Y60.291 E73.81207
G1 X46.998 Y60.863 E73.8724
G1 X47.714 Y61.383 E73.91937
G1 X48.508 Y62.082 E73.97552
G1 X49.241 Y62.959 E74.0362
G1 X49.833 Y63.829 E74.09206
G1 X50.405 Y65.011 E74.16176
G1 X50.801 Y66.279 E74.23228
G1 X50.97 Y67.37 E74.29088
G1 X51.015 Y68.254 E74.33787
G1 X50.963 Y69.365 E74.39691
G1 X50.7 Y70.659 E74.467
G1 X50.245 Y71.915 E74.53792
G1 X49.744 Y72.834 E74.59348
G1 X49.103 Y73.78 E74.65414
G1 X48.368 Y74.58 E74.7118
G1 X47.729 Y75.148 E74.75719
G1 X46.826 Y75.803 E74.8164
G1 X45.855 Y76.309 E74.87453
G1 X45.025 Y76.638 E74.92192
G1 X43.934 Y76.947 E74.98211
G1 X42.655 Y77.111 E75.05056
M204 S3000
M205 X10 Y10
G0 F6000 X42.661 Y77.171
G0 X49.213 Y85.921
G0 X49.833 Y86.829
G0 X50.408 Y88.016
G0 X50.802 Y89.279
G0 X50.97 Y90.376
G0 X51.016 Y91.257
G0 X50.961 Y92.364
G0 X50.697 Y93.668
G0 X50.246 Y94.909
G0 X49.725 Y95.868
G0 X49.105 Y96.78
G0 X48.356 Y97.589
G0 X47.696 Y98.174
G0 X46.797 Y98.823
G0 X46.238 Y99.11
G0 X42.667 Y100.675
M204 S1000
M205 X8 Y8
G1 F2700 X41.472 Y100.647 E75.11401
G1 X40.314 Y100.502 E75.17596
G1 X39.262 Y100.207 E75.23396
G1 X38.091 Y99.759 E75.30052
G1 X37.026 Y99.135 E75.36604
G1 X36.366 Y98.662 E75.40914
G1 X35.469 Y97.877 E75.47242
G1 X34.54 Y96.784 E75.54856
G1 X33.933 Y95.794 E75.61021
G1 X33.418 Y94.734 E75.67276
G1 X32.998 Y93.385 E75.74776
G1 X32.785 Y91.989 E75.82273
G1 X32.79 Y90.753 E75.88834
G1 X32.891 Y89.795 E75.93947
G1 X33.105 Y88.738 E75.99672
G1 X33.583 Y87.419 E76.07119
G1 X34.113 Y86.439 E76.13033
G1 X34.799 Y85.416 E76.19572
G1 X35.546 Y84.606 E76.25421
G1 X36.301 Y83.931 E76.30797
G1 X37.012 Y83.415 E76.3546
G1 X38.073 Y82.798 E76.41975
G1 X39.116 Y82.383 E76.47934
G1 X40.302 Y82.046 E76.54479
G1 X41.709 Y81.866 E76.62009
G1 X42.879 Y81.896 E76.68221
G1 X44.037 Y82.043 E76.74418
G1 X45.158 Y82.355 E76.80595
G1 X46.237 Y82.778 E76.86747
G1 X47.29 Y83.384 E76.93196
G1 X48.035 Y83.922 E76.98074
G1 X48.907 Y84.689 E77.04239
G1 X49.662 Y85.583 E77.1045
G1 X50.321 Y86.546 E77.16645
G1 X50.93 Y87.807 E77.24078
G1 X51.351 Y89.154 E77.31569
G1 X51.533 Y90.384 E77.3817
G1 X51.578 Y91.252 E77.42784
G1 X51.516 Y92.44 E77.49098
G1 X51.236 Y93.817 E77.56558
G1 X50.757 Y95.147 E77.64062
G1 X50.165 Y96.218 E77.70558
G1 X49.544 Y97.132 E77.76423
G1 X48.751 Y97.992 E77.82633
G1 X47.995 Y98.651 E77.87957
G1 X47.09 Y99.304 E77.93881
G1 X46.111 Y99.807 E77.99723
G1 X45.169 Y100.183 E78.05107
G1 X44.056 Y100.497 E78.11246
G1 X42.667 Y100.675 E78.1868
M204 S3000
M205 X10 Y10
G0 F6000 X42.636 Y100.115
M204 S1000
M205 X8 Y8
G1 F2700 X41.468 Y100.083 E78.24882
G1 X40.418 Y99.95 E78.305
G1 X39.335 Y99.641 E78.36479
G1 X38.332 Y99.251 E78.42191
G1 X37.421 Y98.724 E78.47778
G1 X36.645 Y98.168 E78.52846
G1 X35.839 Y97.455 E78.58558
G1 X34.995 Y96.45 E78.65524
G1 X34.42 Y95.519 E78.71333
G1 X33.937 Y94.521 E78.77219
G1 X33.546 Y93.262 E78.84217
G1 X33.345 Y91.953 E78.91247
G1 X33.347 Y90.808 E78.97325
G1 X33.427 Y89.992 E79.01677
G1 X33.647 Y88.887 E79.07658
G1 X34.098 Y87.644 E79.14677
G1 X34.606 Y86.706 E79.2034
G1 X35.239 Y85.765 E79.2636
G1 X36.019 Y84.926 E79.32441
G1 X36.65 Y84.369 E79.36909
G1 X37.337 Y83.872 E79.4141
G1 X38.317 Y83.302 E79.47428
G1 X39.387 Y82.882 E79.53529
G1 X40.413 Y82.595 E79.59185
G1 X41.702 Y82.43 E79.66083
G1 X42.838 Y82.455 E79.72115
G1 X43.924 Y82.592 E79.77925
G1 X44.978 Y82.886 E79.83734
G1 X46.002 Y83.287 E79.89572
G1 X46.953 Y83.833 E79.95393
G1 X47.685 Y84.359 E80.00177
G1 X48.486 Y85.064 E80.05842
G1 X49.19 Y85.892 E80.11611
G1 X49.833 Y86.825 E80.17626
G1 X50.407 Y88.01 E80.24615
G1 X50.804 Y89.283 E80.31694
G1 X50.965 Y90.328 E80.37307
G1 X51.015 Y91.254 E80.42229
G1 X50.96 Y92.37 E80.4816
G1 X50.697 Y93.664 E80.5517
G1 X50.242 Y94.916 E80.62241
G1 X49.744 Y95.834 E80.67785
G1 X49.103 Y96.784 E80.73869
G1 X48.33 Y97.616 E80.79897
G1 X47.667 Y98.197 E80.84577
G1 X46.796 Y98.825 E80.90277
G1 X45.855 Y99.309 E80.95894
G1 X45.028 Y99.637 E81.00616
G1 X43.913 Y99.951 E81.06765
G1 X42.636 Y100.115 E81.136
M204 S3000
M205 X10 Y10
G0 F6000 X42.642 Y100.173
G0 X27.706 Y106.639
G0 X25.668 Y106.684
M204 S1000
M205 X8 Y8
G1 F1936 X25.346 Y106.395 E81.16803
G1 F1986.9 X25.203 Y106.188 E81.18618
M204 S3000
M205 X10 Y10
G0 F6000 X26.664 Y106.646
G0 X27.303 Y106.71
G0 X62.59 Y93.544
M204 S1000
M205 X8 Y8
G1 F2700 X62.231 Y93.306 E81.20904
G1 X62.021 Y93.065 E81.22601
G1 X61.872 Y92.785 E81.24285
G1 X61.776 Y92.338 E81.26712
G1 X61.778 Y67.167 E82.60327
G1 X61.827 Y66.891 E82.61815
G1 X61.951 Y66.59 E82.63543
G1 X62.239 Y66.229 E82.65995
G1 X62.462 Y66.065 E82.67464
G1 X62.727 Y65.944 E82.69011
G1 X63.175 Y65.871 E82.7142
G1 X135.28 Y65.871 E86.54176
G1 X135.76 Y65.998 E86.56812
G1 X136.111 Y66.228 E86.5904
G1 X136.389 Y66.572 E86.61387
G1 X136.539 Y66.951 E86.63551
G1 X136.575 Y67.271 E86.65261
G1 X136.57 Y92.401 E87.98659
G1 X136.452 Y92.846 E88.01102
G1 X136.341 Y93.047 E88.02321
G1 X136.111 Y93.314 E88.04192
G1 X135.888 Y93.477 E88.05658
G1 X135.623 Y93.598 E88.07205
G1 X135.175 Y93.671 E88.09614
G1 X63.07 Y93.671 E91.9237
G1 X62.59 Y93.544 E91.95006
M204 S3000
M205 X10 Y10
G0 F6000 X62.747 Y92.995
M204 S1000
M205 X8 Y8
G1 F2700 X62.521 Y92.8 E91.96591
G1 X62.418 Y92.638 E91.9761
G1 X62.335 Y92.311 E91.994
G1 X62.341 Y67.166 E93.32878
G1 X62.44 Y66.862 E93.34575
G1 X62.613 Y66.645 E93.36048
G1 X62.906 Y66.475 E93.37847
G1 X63.083 Y66.435 E93.3881
G1 X135.319 Y66.435 E97.22261
G1 X135.603 Y66.547 E97.23882
G1 X135.737 Y66.645 E97.24763
G1 X135.904 Y66.851 E97.26171
G1 X136.009 Y67.163 E97.27918
G1 X136.012 Y92.349 E98.61614
G1 X135.965 Y92.559 E98.62756
G1 X135.737 Y92.897 E98.6492
G1 X135.444 Y93.067 E98.66719
G1 X135.267 Y93.107 E98.67682
G1 X63.031 Y93.107 E102.51133
G1 X62.747 Y92.995 E102.52754
M204 S3000
M205 X10 Y10
G0 F6000 X62.747 Y93.171
G0 X156.667 Y100.675
M204 S1000
M205 X8 Y8
G1 F2700 X155.472 Y100.647 E102.59099
G1 X154.314 Y100.502 E102.65294
G1 X153.262 Y100.207 E102.71094
G1 X152.091 Y99.759 E102.77749
G1 X151.026 Y99.135 E102.84302
G1 X150.384 Y98.675 E102.88494
G1 X149.45 Y97.864 E102.9506
G1 X148.539 Y96.782 E103.02569
G1 X147.92 Y95.775 E103.08843
G1 X147.422 Y94.733 E103.14974
G1 X147.003 Y93.389 E103.22447
G1 X146.792 Y92.033 E103.29731
G1 X146.783 Y90.815 E103.36197
G1 X146.891 Y89.795 E103.41642
G1 X147.105 Y88.738 E103.47367
G1 X147.585 Y87.412 E103.54852
G1 X148.148 Y86.376 E103.61111
G1 X148.805 Y85.416 E103.67287
G1 X149.629 Y84.523 E103.73737
G1 X150.301 Y83.931 E103.78491
G1 X151.012 Y83.415 E103.83154
G1 X152.073 Y82.798 E103.89669
G1 X153.116 Y82.383 E103.95628
G1 X154.302 Y82.046 E104.02173
G1 X155.709 Y81.866 E104.09703
G1 X156.879 Y81.896 E104.15915
G1 X158.037 Y82.043 E104.22112
G1 X159.158 Y82.355 E104.28288
G1 X160.237 Y82.778 E104.34441
G1 X161.29 Y83.384 E104.4089
G1 X162.035 Y83.922 E104.45768
G1 X162.908 Y84.688 E104.51933
G1 X163.663 Y85.584 E104.58153
G1 X164.321 Y86.546 E104.6434
G1 X164.931 Y87.807 E104.71775
G1 X165.353 Y89.163 E104.79314
G1 X165.533 Y90.384 E104.85866
G1 X165.576 Y91.254 E104.90489
G1 X165.52 Y92.437 E104.96776
G1 X165.238 Y93.821 E105.04274
G1 X164.758 Y95.145 E105.1175
G1 X164.219 Y96.132 E105.17719
G1 X163.548 Y97.128 E105.24094
G1 X162.766 Y97.974 E105.3021
G1 X162.054 Y98.606 E105.35263
G1 X161.091 Y99.303 E105.41574
G1 X160.111 Y99.807 E105.47424
G1 X159.169 Y100.183 E105.52808
G1 X158.056 Y100.497 E105.58946
G1 X156.667 Y100.675 E105.6638
M204 S3000
M205 X10 Y10
G0 F6000 X156.636 Y100.115
M204 S1000
M205 X8 Y8
G1 F2700 X155.468 Y100.083 E105.72582
G1 X154.418 Y99.95 E105.78201
G1 X153.335 Y99.641 E105.84179
G1 X152.332 Y99.251 E105.89892
G1 X151.421 Y98.724 E105.95478
G1 X150.645 Y98.168 E106.00546
G1 X149.853 Y97.473 E106.06139
G1 X148.991 Y96.448 E106.13249
G1 X148.436 Y95.546 E106.1887
G1 X147.942 Y94.526 E106.24886
G1 X147.548 Y93.262 E106.31915
G1 X147.346 Y91.934 E106.39045
G1 X147.347 Y90.808 E106.45022
G1 X147.427 Y89.992 E106.49375
G1 X147.647 Y88.887 E106.55355
G1 X148.098 Y87.643 E106.6238
