;FLAVOR:Marlin
;TIME:1159
;Filament used: 2.14927m
;Layer height: 0.3
;MINX:36.022
;MINY:75.589
;MINZ:0.2
;MAXX:187.582
;MAXY:132.149
;MAXZ:1.1
;TARGET_MACHINE.NAME:Anycubic Kobra Max
;Generated with Cura_SteamEngine 5.5.0
M140 S60
M105
M190 S60
M104 S195
M105
M109 S195
M82 ;absolute extrusion mode
G28 ;Home
G1 Z15.0 F1200 ;Move the platform down 15mm
;Prime the extruder
G92 E0
G1 F200 E3
G92 E0
G92 E0
G92 E0
G1 F2400 E-6
;LAYER_COUNT:4
;LAYER:0
M107
M204 S3000
M205 X10 Y10
G1 F1200 Z0.275
G0 F6000 X37.844 Y75.944 Z0.275
M204 S1000
M205 X8 Y8
;TYPE:SKIRT
G1 F1200 Z0.2
G1 F2400 E0
G1 X38.318 Y75.752 E0.02715
G1 X38.816 Y75.635 E0.0543
G1 X39.32 Y75.59 E0.08116
G1 X183.642 Y75.589 E7.74223
G1 X184.34 Y75.599 E7.77929
G1 X184.85 Y75.647 E7.80648
G1 X185.346 Y75.773 E7.83365
G1 X185.816 Y75.974 E7.86078
G1 X186.25 Y76.247 E7.888
G1 X186.635 Y76.583 E7.91512
G1 X186.964 Y76.975 E7.94229
G1 X187.228 Y77.414 E7.96948
G1 X187.42 Y77.889 E7.99668
G1 X187.536 Y78.387 E8.02382
G1 X187.581 Y78.887 E8.05047
G1 X187.582 Y128.174 E10.66678
G1 X187.573 Y128.901 E10.70538
G1 X187.526 Y129.41 E10.73251
G1 X187.401 Y129.907 E10.75971
G1 X187.201 Y130.378 E10.78688
G1 X186.929 Y130.812 E10.81407
G1 X186.594 Y131.198 E10.8412
G1 X186.202 Y131.527 E10.86836
G1 X185.764 Y131.792 E10.89554
G1 X185.29 Y131.985 E10.9227
G1 X184.791 Y132.102 E10.94991
G1 X184.286 Y132.148 E10.97683
G1 X39.967 Y132.149 E18.63774
G1 X39.269 Y132.14 E18.6748
G1 X38.759 Y132.093 E18.70198
G1 X38.263 Y131.968 E18.72914
G1 X37.792 Y131.767 E18.75632
G1 X37.358 Y131.495 E18.78351
G1 X36.972 Y131.159 E18.81067
G1 X36.643 Y130.767 E18.83784
G1 X36.378 Y130.329 E18.86501
G1 X36.186 Y129.855 E18.89216
G1 X36.069 Y129.357 E18.91932
G1 X36.023 Y128.85 E18.94634
G1 X36.022 Y79.499 E21.56605
G1 X36.031 Y78.834 E21.60135
G1 X36.078 Y78.324 E21.62854
G1 X36.204 Y77.828 E21.6557
G1 X36.405 Y77.357 E21.68289
G1 X36.677 Y76.923 E21.71008
G1 X37.013 Y76.537 E21.73724
G1 X37.405 Y76.208 E21.76441
G1 X37.844 Y75.944 E21.7916
M204 S3000
M205 X10 Y10
G1 F2400 E15.7916
;MESH:Stopuhr-V01.stl
G0 F6000 X39.716 Y78.204
G0 X39.716 Y79.283
G0 X46.526 Y95.648
G0 X46.89 Y96.405
G0 X47.437 Y97.303
G0 X48.252 Y98.271
G0 X49.199 Y99.108
G0 X50.083 Y99.678
G0 X54.761 Y101.775
M204 S1000
M205 X8 Y8
;TYPE:WALL-INNER
G1 F2400 E21.7916
G1 F2700 X53.526 Y101.737 E21.85719
G1 X52.442 Y101.6 E21.91519
G1 X51.306 Y101.282 E21.97781
G1 X50.494 Y100.963 E22.02412
G1 X49.603 Y100.511 E22.07716
G1 X48.628 Y99.88 E22.1388
G1 X47.563 Y98.946 E22.214
G1 X46.654 Y97.865 E22.28897
G1 X46.078 Y96.922 E22.34763
G1 X45.638 Y96.023 E22.40076
G1 X45.3 Y95.068 E22.45454
G1 X45.082 Y94.198 E22.50215
G1 X44.957 Y93.378 E22.54618
G1 X44.903 Y92.444 E22.59584
G1 X44.946 Y91.429 E22.64977
G1 X45.122 Y90.273 E22.71184
G1 X45.496 Y89.086 E22.7779
G1 X45.924 Y88.07 E22.83643
G1 X46.577 Y87.016 E22.90224
G1 X47.115 Y86.309 E22.9494
G1 X47.688 Y85.691 E22.99414
G1 X48.607 Y84.869 E23.05959
G1 X49.603 Y84.225 E23.12255
G1 X50.644 Y83.69 E23.18468
G1 X51.969 Y83.246 E23.25886
G1 X53.065 Y83.051 E23.31795
G1 X54.002 Y82.975 E23.36785
G1 X54.937 Y82.991 E23.4175
G1 X55.866 Y83.101 E23.46715
G1 X56.856 Y83.32 E23.52098
G1 X57.799 Y83.644 E23.57391
G1 X58.653 Y84.037 E23.62381
G1 X59.342 Y84.435 E23.66605
G1 X60.111 Y84.98 E23.71608
G1 X60.869 Y85.64 E23.76943
G1 X61.664 Y86.495 E23.83141
G1 X62.355 Y87.521 E23.89707
G1 X62.771 Y88.281 E23.94306
G1 X63.225 Y89.371 E24.00574
G1 X63.516 Y90.499 E24.06758
G1 X63.657 Y91.429 E24.11751
G1 X63.701 Y92.296 E24.16359
G1 X63.662 Y93.235 E24.21348
G1 X63.523 Y94.198 E24.26513
G1 X63.288 Y95.137 E24.31651
G1 X62.885 Y96.243 E24.379
G1 X62.358 Y97.211 E24.4375
G1 X61.804 Y98.037 E24.4903
G1 X61.042 Y98.943 E24.55314
G1 X60.169 Y99.714 E24.61497
G1 X59.404 Y100.265 E24.66501
G1 X58.407 Y100.841 E24.72614
G1 X57.291 Y101.284 E24.78987
G1 X56.159 Y101.601 E24.85228
G1 X54.761 Y101.775 E24.92706
M204 S3000
M205 X10 Y10
G0 F6000 X54.771 Y101.21
M204 S1000
M205 X8 Y8
G1 F2700 X53.596 Y101.181 E24.98945
G1 X52.548 Y101.049 E25.04552
G1 X51.528 Y100.763 E25.10175
G1 X50.656 Y100.423 E25.15144
G1 X49.884 Y100.026 E25.19752
G1 X48.962 Y99.43 E25.2558
G1 X47.965 Y98.554 E25.32625
G1 X47.107 Y97.533 E25.39704
G1 X46.516 Y96.557 E25.45761
G1 X46.174 Y95.846 E25.49949
G1 X45.842 Y94.93 E25.55121
G1 X45.647 Y94.164 E25.59317
G1 X45.502 Y93.21 E25.64439
G1 X45.462 Y92.331 E25.6911
G1 X45.502 Y91.525 E25.73394
G1 X45.669 Y90.401 E25.79426
G1 X46.012 Y89.303 E25.85532
G1 X46.422 Y88.331 E25.91132
G1 X47.024 Y87.353 E25.97228
G1 X47.538 Y86.676 E26.0174
G1 X48.157 Y86.015 E26.06547
G1 X48.949 Y85.315 E26.12158
G1 X49.848 Y84.733 E26.17843
G1 X50.86 Y84.208 E26.23895
G1 X52.112 Y83.789 E26.30903
G1 X53.162 Y83.603 E26.36564
G1 X54.044 Y83.534 E26.4126
G1 X55.01 Y83.557 E26.46389
G1 X55.875 Y83.671 E26.51021
G1 X56.66 Y83.85 E26.55295
G1 X57.49 Y84.124 E26.59935
G1 X58.373 Y84.522 E26.65076
G1 X59.062 Y84.92 E26.693
G1 X59.784 Y85.434 E26.74004
G1 X60.447 Y86.015 E26.78684
G1 X61.221 Y86.842 E26.84697
G1 X61.863 Y87.789 E26.9077
G1 X62.284 Y88.567 E26.95466
G1 X62.694 Y89.55 E27.01119
G1 X62.967 Y90.611 E27.06935
G1 X63.094 Y91.442 E27.11397
G1 X63.142 Y92.365 E27.16304
G1 X63.103 Y93.207 E27.20778
G1 X62.971 Y94.102 E27.2558
G1 X62.738 Y95.01 E27.30556
G1 X62.373 Y96.011 E27.36212
G1 X61.823 Y97.014 E27.42285
G1 X61.326 Y97.737 E27.46942
G1 X60.62 Y98.569 E27.52734
G1 X59.819 Y99.277 E27.58409
G1 X59.099 Y99.795 E27.63117
G1 X58.157 Y100.34 E27.68894
G1 X57.156 Y100.736 E27.74609
G1 X56.055 Y101.049 E27.80685
G1 X54.771 Y101.21 E27.87554
M204 S3000
M205 X10 Y10
G0 F6000 X54.777 Y101.269
G0 X61.221 Y109.845
G0 X61.846 Y110.76
G0 X62.268 Y111.534
G0 X62.694 Y112.549
G0 X62.968 Y113.618
G0 X63.099 Y114.491
G0 X63.143 Y115.369
G0 X63.099 Y116.248
G0 X62.968 Y117.12
G0 X62.75 Y117.974
G0 X62.373 Y119.008
G0 X61.847 Y119.978
G0 X61.348 Y120.708
G0 X60.645 Y121.547
G0 X59.813 Y122.281
G0 X59.099 Y122.795
G0 X58.325 Y123.242
G0 X54.78 Y124.774
M204 S1000
M205 X8 Y8
G1 F2700 X53.526 Y124.737 E27.94213
G1 X52.442 Y124.6 E28.00013
G1 X51.301 Y124.281 E28.06302
G1 X50.367 Y123.905 E28.11647
G1 X49.546 Y123.476 E28.16564
G1 X48.617 Y122.877 E28.22432
G1 X47.561 Y121.945 E28.29909
G1 X46.653 Y120.865 E28.37398
G1 X46.078 Y119.922 E28.43261
G1 X45.638 Y119.023 E28.48575
G1 X45.3 Y118.068 E28.53952
G1 X45.082 Y117.198 E28.58713
G1 X44.957 Y116.378 E28.63116
G1 X44.903 Y115.444 E28.68082
G1 X44.946 Y114.429 E28.73475
G1 X45.122 Y113.273 E28.79682
G1 X45.496 Y112.086 E28.86289
G1 X45.924 Y111.07 E28.92141
G1 X46.577 Y110.016 E28.98723
G1 X47.056 Y109.381 E29.02945
G1 X47.688 Y108.691 E29.07912
G1 X48.605 Y107.871 E29.14442
G1 X49.603 Y107.227 E29.20747
G1 X50.62 Y106.705 E29.26815
G1 X51.97 Y106.245 E29.34386
G1 X53.205 Y106.034 E29.41037
G1 X54.002 Y105.975 E29.45279
G1 X54.998 Y105.994 E29.50567
G1 X55.939 Y106.113 E29.55602
G1 X56.785 Y106.304 E29.60206
G1 X57.739 Y106.616 E29.65534
G1 X58.606 Y107.011 E29.70591
G1 X59.404 Y107.473 E29.75486
G1 X60.169 Y108.024 E29.80491
G1 X60.845 Y108.62 E29.85275
G1 X61.657 Y109.493 E29.91603
G1 X62.355 Y110.52 E29.98195
G1 X62.738 Y111.22 E30.02431
G1 X63.231 Y112.376 E30.09102
G1 X63.528 Y113.568 E30.15623
G1 X63.662 Y114.5 E30.20621
G1 X63.701 Y115.434 E30.25583
G1 X63.658 Y116.308 E30.30228
G1 X63.528 Y117.167 E30.3484
G1 X63.286 Y118.137 E30.40147
G1 X62.886 Y119.238 E30.46365
G1 X62.358 Y120.211 E30.52242
G1 X61.801 Y121.042 E30.57552
G1 X61.049 Y121.938 E30.63762
G1 X60.164 Y122.721 E30.70034
G1 X59.343 Y123.302 E30.75373
G1 X58.391 Y123.853 E30.81212
G1 X57.36 Y124.257 E30.8709
G1 X56.181 Y124.596 E30.93602
G1 X54.78 Y124.774 E31.01099
M204 S3000
M205 X10 Y10
G0 F6000 X54.749 Y124.213
M204 S1000
M205 X8 Y8
G1 F2700 X53.596 Y124.181 E31.07222
G1 X52.549 Y124.049 E31.12824
G1 X51.528 Y123.763 E31.18452
G1 X50.623 Y123.407 E31.23614
G1 X49.922 Y123.047 E31.27798
G1 X48.953 Y122.426 E31.33907
G1 X47.965 Y121.553 E31.40906
G1 X47.107 Y120.533 E31.47981
G1 X46.516 Y119.557 E31.54038
G1 X46.174 Y118.846 E31.58226
G1 X45.842 Y117.93 E31.63398
G1 X45.647 Y117.164 E31.67594
G1 X45.502 Y116.21 E31.72716
G1 X45.462 Y115.331 E31.77387
G1 X45.502 Y114.525 E31.81671
G1 X45.669 Y113.401 E31.87703
G1 X46.012 Y112.303 E31.93809
G1 X46.422 Y111.331 E31.99409
G1 X47.024 Y110.353 E32.05505
G1 X47.503 Y109.719 E32.09723
G1 X48.098 Y109.072 E32.14389
G1 X48.95 Y108.313 E32.20446
G1 X49.883 Y107.712 E32.26337
G1 X50.847 Y107.217 E32.3209
G1 X52.11 Y106.789 E32.39169
G1 X53.162 Y106.603 E32.4484
G1 X54.044 Y106.534 E32.49536
G1 X54.96 Y106.552 E32.54399
G1 X55.839 Y106.664 E32.59103
G1 X56.66 Y106.85 E32.63572
G1 X57.49 Y107.124 E32.68211
G1 X58.373 Y107.522 E32.73353
G1 X59.099 Y107.943 E32.77808
G1 X59.819 Y108.461 E32.82516
G1 X60.463 Y109.03 E32.87078
G1 X61.219 Y109.843 E32.92971
G1 X61.863 Y110.789 E32.99046
G1 X62.284 Y111.567 E33.03742
G1 X62.697 Y112.552 E33.09411
G1 X62.974 Y113.652 E33.15433
G1 X63.103 Y114.527 E33.20128
G1 X63.142 Y115.365 E33.24581
G1 X63.103 Y116.207 E33.29055
G1 X62.967 Y117.124 E33.33976
G1 X62.763 Y117.93 E33.3839
G1 X62.374 Y119.01 E33.44483
G1 X61.823 Y120.014 E33.50563
G1 X61.326 Y120.737 E33.5522
G1 X60.644 Y121.549 E33.60849
G1 X59.784 Y122.304 E33.66924
G1 X59.062 Y122.817 E33.71625
G1 X58.141 Y123.35 E33.77274
G1 X57.156 Y123.736 E33.8289
G1 X56.033 Y124.051 E33.89081
G1 X54.749 Y124.213 E33.95951
M204 S3000
M205 X10 Y10
G0 F6000 X54.755 Y124.272
G0 X148.81 Y117.675
M204 S1000
M205 X8 Y8
G1 F2700 X148.425 Y117.769 E33.98055
G1 X75.179 Y117.769 E37.86868
G1 X74.794 Y117.675 E37.88971
G1 X74.504 Y117.52 E37.90717
G1 X74.181 Y117.209 E37.93097
G1 X73.981 Y116.834 E37.95353
G1 X73.902 Y116.499 E37.9718
G1 X73.905 Y91.268 E39.31114
G1 X73.942 Y91.035 E39.32367
G1 X74.06 Y90.722 E39.34142
G1 X74.381 Y90.313 E39.36902
G1 X74.795 Y90.063 E39.39469
G1 X75.167 Y89.969 E39.41506
G1 X148.425 Y89.969 E43.30383
G1 X148.81 Y90.063 E43.32487
G1 X149.1 Y90.218 E43.34232
G1 X149.331 Y90.418 E43.35854
G1 X149.492 Y90.629 E43.37263
G1 X149.652 Y90.996 E43.39388
G1 X149.703 Y91.25 E43.40763
G1 X149.702 Y116.499 E44.74793
G1 X149.562 Y116.98 E44.77452
G1 X149.331 Y117.32 E44.79634
G1 X149.1 Y117.52 E44.81256
G1 X148.81 Y117.675 E44.83002
M204 S3000
M205 X10 Y10
G0 F6000 X148.92 Y116.94
M204 S1000
M205 X8 Y8
G1 F2700 X148.607 Y117.153 E44.85012
G1 X148.407 Y117.203 E44.86106
G1 X75.229 Y117.209 E48.74558
G1 X74.997 Y117.153 E48.75825
G1 X74.684 Y116.939 E48.77838
G1 X74.565 Y116.774 E48.78917
G1 X74.463 Y116.427 E48.80837
G1 X74.464 Y91.308 E50.14177
G1 X74.509 Y91.089 E50.15364
G1 X74.621 Y90.875 E50.16646
G1 X74.906 Y90.627 E50.18651
G1 X75.197 Y90.535 E50.20272
G1 X148.375 Y90.529 E54.08724
G1 X148.607 Y90.585 E54.0999
G1 X148.781 Y90.678 E54.11038
G1 X149.016 Y90.925 E54.12848
G1 X149.143 Y91.296 E54.14929
G1 X149.137 Y116.47 E55.48561
G1 X149.058 Y116.736 E55.50034
G1 X148.92 Y116.94 E55.51341
M204 S3000
M205 X10 Y10
G0 F6000 X149.202 Y116.94
G0 X166.487 Y123.749
G0 X169.78 Y124.774
M204 S1000
M205 X8 Y8
G1 F2700 X168.526 Y124.737 E55.58001
G1 X167.442 Y124.6 E55.63801
G1 X166.301 Y124.281 E55.7009
G1 X165.367 Y123.905 E55.75434
G1 X164.546 Y123.476 E55.80352
G1 X163.617 Y122.877 E55.86219
G1 X162.561 Y121.945 E55.93696
G1 X161.653 Y120.865 E56.01186
G1 X161.078 Y119.922 E56.07049
G1 X160.638 Y119.022 E56.12366
G1 X160.319 Y118.136 E56.17365
G1 X160.09 Y117.236 E56.22295
G1 X159.957 Y116.378 E56.26904
G1 X159.903 Y115.444 E56.3187
G1 X159.946 Y114.429 E56.37263
G1 X160.122 Y113.273 E56.4347
G1 X160.496 Y112.086 E56.50076
G1 X160.924 Y111.07 E56.55929
G1 X161.577 Y110.015 E56.62515
G1 X162.148 Y109.272 E56.67489
G1 X162.761 Y108.618 E56.72247
G1 X163.608 Y107.874 E56.78232
G1 X164.603 Y107.227 E56.84532
G1 X165.62 Y106.705 E56.906
G1 X166.97 Y106.245 E56.98171
G1 X168.205 Y106.034 E57.04822
G1 X169.002 Y105.975 E57.09064
G1 X169.998 Y105.994 E57.14352
G1 X170.939 Y106.113 E57.19387
G1 X171.785 Y106.304 E57.23991
G1 X172.739 Y106.616 E57.29319
G1 X173.606 Y107.011 E57.34376
G1 X174.404 Y107.473 E57.39271
G1 X175.111 Y107.98 E57.43889
G1 X175.869 Y108.64 E57.49225
G1 X176.656 Y109.488 E57.55366
G1 X177.283 Y110.403 E57.61254
G1 X177.771 Y111.279 E57.66577
G1 X178.232 Y112.381 E57.72918
G1 X178.528 Y113.568 E57.79412
G1 X178.662 Y114.5 E57.8441
G1 X178.701 Y115.433 E57.89367
G1 X178.662 Y116.234 E57.93624
G1 X178.523 Y117.198 E57.98794
G1 X178.288 Y118.137 E58.03932
G1 X177.885 Y119.243 E58.10181
G1 X177.286 Y120.33 E58.16769
G1 X176.84 Y120.984 E58.20971
G1 X176.052 Y121.935 E58.27527
G1 X175.164 Y122.721 E58.33822
G1 X174.343 Y123.302 E58.39161
G1 X173.391 Y123.853 E58.45
G1 X172.36 Y124.257 E58.50878
G1 X171.181 Y124.596 E58.5739
G1 X169.78 Y124.774 E58.64887
M204 S3000
M205 X10 Y10
G0 F6000 X169.749 Y124.213
M204 S1000
M205 X8 Y8
G1 F2700 X168.596 Y124.181 E58.7101
G1 X167.549 Y124.049 E58.76612
G1 X166.528 Y123.763 E58.8224
G1 X165.623 Y123.407 E58.87403
G1 X164.922 Y123.047 E58.91586
G1 X163.953 Y122.426 E58.97695
G1 X162.965 Y121.553 E59.04694
G1 X162.107 Y120.533 E59.11769
G1 X161.516 Y119.557 E59.17826
G1 X161.174 Y118.846 E59.22014
G1 X160.842 Y117.93 E59.27186
G1 X160.638 Y117.124 E59.31599
G1 X160.506 Y116.252 E59.36281
G1 X160.462 Y115.331 E59.41176
G1 X160.511 Y114.44 E59.45912
G1 X160.669 Y113.4 E59.51496
G1 X161.012 Y112.303 E59.57598
G1 X161.422 Y111.331 E59.63198
G1 X162.024 Y110.353 E59.69294
G1 X162.503 Y109.719 E59.73512
G1 X163.119 Y109.051 E59.78335
G1 X163.95 Y108.313 E59.84235
G1 X164.883 Y107.712 E59.90126
G1 X165.847 Y107.217 E59.95879
G1 X167.11 Y106.789 E60.02958
G1 X168.162 Y106.603 E60.08628
G1 X169.044 Y106.534 E60.13325
G1 X169.96 Y106.552 E60.18188
G1 X170.839 Y106.664 E60.22892
G1 X171.66 Y106.85 E60.2736
G1 X172.49 Y107.124 E60.32
G1 X173.373 Y107.522 E60.37142
G1 X174.099 Y107.943 E60.41596
G1 X174.85 Y108.487 E60.46519
G1 X175.506 Y109.073 E60.51188
G1 X176.222 Y109.843 E60.5677
G1 X176.864 Y110.789 E60.62839
G1 X177.284 Y111.567 E60.67532
G1 X177.696 Y112.549 E60.73185
G1 X177.974 Y113.652 E60.79223
G1 X178.094 Y114.442 E60.83465
G1 X178.142 Y115.406 E60.88588
G1 X178.094 Y116.293 E60.93304
G1 X177.971 Y117.102 E60.97647
G1 X177.738 Y118.01 E61.02624
G1 X177.373 Y119.011 E61.08279
G1 X176.823 Y120.014 E61.14352
G1 X176.326 Y120.737 E61.19009
G1 X175.644 Y121.549 E61.24638
G1 X174.784 Y122.304 E61.30713
G1 X174.062 Y122.817 E61.35414
G1 X173.141 Y123.35 E61.41063
G1 X172.156 Y123.736 E61.46679
G1 X171.033 Y124.051 E61.5287
G1 X169.749 Y124.213 E61.5974
M204 S3000
M205 X10 Y10
G0 F6000 X169.755 Y124.272
G0 X182.902 Y127.469
M204 S1000
M205 X8 Y8
G1 F2700 X182.902 Y80.269 E64.10292
G1 X40.703 Y80.27 E71.6513
G1 X40.703 Y127.468 E74.15672
G1 X182.902 Y127.469 E81.70509
M204 S3000
M205 X10 Y10
G0 F6000 X183.462 Y128.029
M204 S1000
M205 X8 Y8
G1 F2700 X183.462 Y79.709 E84.27007
G1 X40.143 Y79.71 E91.8779
G1 X40.143 Y128.028 E94.44277
G1 X183.462 Y128.029 E102.0506
M204 S3000
M205 X10 Y10
G0 F6000 X183.402 Y128.029
G0 X177.694 Y112.549
G0 X177.268 Y111.534
G0 X176.846 Y110.76
G0 X176.492 Y110.241
G0 X169.761 Y101.775
M204 S1000
M205 X8 Y8
G1 F2700 X168.526 Y101.737 E102.11619
G1 X167.442 Y101.6 E102.17419
G1 X166.306 Y101.282 E102.23681
G1 X165.494 Y100.963 E102.28312
G1 X164.603 Y100.511 E102.33615
G1 X163.611 Y99.867 E102.39894
G1 X162.566 Y98.944 E102.47295
G1 X161.655 Y97.867 E102.54783
G1 X161.078 Y96.922 E102.6066
G1 X160.64 Y96.026 E102.65955
G1 X160.317 Y95.135 E102.70985
G1 X160.082 Y94.198 E102.76113
G1 X159.957 Y93.378 E102.80516
G1 X159.903 Y92.444 E102.85483
G1 X159.946 Y91.427 E102.90886
G1 X160.126 Y90.272 E102.97091
G1 X160.47 Y89.149 E103.03326
G1 X160.924 Y88.07 E103.0954
G1 X161.577 Y87.016 E103.16122
G1 X162.056 Y86.381 E103.20344
G1 X162.688 Y85.691 E103.25311
G1 X163.607 Y84.869 E103.31856
G1 X164.603 Y84.225 E103.38152
G1 X165.644 Y83.69 E103.44365
G1 X166.969 Y83.246 E103.51783
G1 X168.065 Y83.051 E103.57692
G1 X169.002 Y82.975 E103.62682
G1 X169.937 Y82.991 E103.67646
G1 X170.866 Y83.101 E103.72612
G1 X171.856 Y83.32 E103.77994
G1 X172.799 Y83.644 E103.83287
G1 X173.653 Y84.037 E103.88278
