;FLAVOR:Marlin
;TIME:1630
;Filament used: 2.9812m
;Layer height: 0.3
;MINX:215.287
;MINY:109.844
;MINZ:0.2
;MAXX:366.847
;MAXY:166.404
;MAXZ:5.9
;TARGET_MACHINE.NAME:Anycubic Kobra Max
;Generated with Cura_SteamEngine 5.5.0
M140 S60
M105
M190 S60
M104 S195
M105
M109 S195
M82 ;absolute extrusion mode
G28 ;Home
G1 Z15.0 F1200 ;Move the platform down 15mm
;Prime the extruder
G92 E0
G1 F200 E3
G92 E0
G92 E0
G92 E0
G1 F2400 E-6
;LAYER_COUNT:20
;LAYER:0
M107
M204 S3000
M205 X10 Y10
G1 F1200 Z0.275
G0 F6000 X215.67 Y111.612 Z0.275
M204 S1000
M205 X8 Y8
;TYPE:SKIRT
G1 F1200 Z0.2
G1 F2400 E0
G1 X215.942 Y111.178 E0.02719
G1 X216.278 Y110.792 E0.05435
G1 X216.67 Y110.463 E0.08152
G1 X217.109 Y110.199 E0.10871
G1 X217.583 Y110.007 E0.13586
G1 X218.081 Y109.89 E0.16302
G1 X218.585 Y109.845 E0.18988
G1 X362.907 Y109.844 E7.85095
G1 X363.605 Y109.854 E7.888
G1 X364.115 Y109.902 E7.91519
G1 X364.611 Y110.028 E7.94236
G1 X365.081 Y110.229 E7.96949
G1 X365.515 Y110.502 E7.99671
G1 X365.9 Y110.838 E8.02384
G1 X366.229 Y111.23 E8.051
G1 X366.493 Y111.669 E8.0782
G1 X366.685 Y112.144 E8.10539
G1 X366.801 Y112.642 E8.13254
G1 X366.846 Y113.142 E8.15918
G1 X366.847 Y162.429 E10.77549
G1 X366.838 Y163.156 E10.81409
G1 X366.791 Y163.665 E10.84122
G1 X366.666 Y164.162 E10.86843
G1 X366.466 Y164.633 E10.89559
G1 X366.194 Y165.067 E10.92278
G1 X365.859 Y165.453 E10.94991
G1 X365.467 Y165.782 E10.97708
G1 X365.029 Y166.047 E11.00425
G1 X364.555 Y166.24 E11.03142
G1 X364.056 Y166.357 E11.05862
G1 X363.551 Y166.403 E11.08554
G1 X219.232 Y166.404 E18.74645
G1 X218.534 Y166.395 E18.78351
G1 X218.024 Y166.348 E18.8107
G1 X217.528 Y166.223 E18.83785
G1 X217.057 Y166.022 E18.86503
G1 X216.623 Y165.75 E18.89222
G1 X216.237 Y165.414 E18.91939
G1 X215.908 Y165.022 E18.94655
G1 X215.643 Y164.584 E18.97373
G1 X215.451 Y164.11 E19.00087
G1 X215.334 Y163.612 E19.02803
G1 X215.288 Y163.105 E19.05505
G1 X215.287 Y113.754 E21.67476
G1 X215.296 Y113.089 E21.71006
G1 X215.343 Y112.579 E21.73725
G1 X215.469 Y112.083 E21.76442
G1 X215.67 Y111.612 E21.7916
M204 S3000
M205 X10 Y10
G1 F2400 E15.7916
;MESH:Stopuhr-V02.stl
G0 F6000 X217.902 Y113.538
G0 X218.981 Y113.538
G0 X225.962 Y130.286
G0 X226.364 Y131.025
G0 X226.84 Y131.721
G0 X227.379 Y132.365
G0 X227.982 Y132.952
G0 X228.64 Y133.477
G0 X229.348 Y133.934
G0 X234.033 Y136.03
M204 S1000
M205 X8 Y8
;TYPE:WALL-INNER
G1 F2400 E21.7916
G1 F2700 X232.79 Y135.992 E21.85761
G1 X231.707 Y135.855 E21.91556
G1 X230.574 Y135.538 E21.97801
G1 X229.759 Y135.218 E22.02449
G1 X228.868 Y134.769 E22.07746
G1 X228.134 Y134.295 E22.12384
G1 X227.348 Y133.678 E22.17688
G1 X226.726 Y133.072 E22.22298
G1 X226.113 Y132.35 E22.27325
G1 X225.583 Y131.585 E22.32266
G1 X225.095 Y130.706 E22.37602
G1 X224.638 Y129.62 E22.43857
G1 X224.346 Y128.454 E22.50238
G1 X224.221 Y127.632 E22.54651
G1 X224.168 Y126.697 E22.59622
G1 X224.21 Y125.686 E22.64994
G1 X224.386 Y124.528 E22.71211
G1 X224.759 Y123.343 E22.77806
G1 X225.095 Y122.543 E22.82412
G1 X225.653 Y121.521 E22.88593
G1 X226.506 Y120.392 E22.96104
G1 X227.509 Y119.413 E23.03544
G1 X228.527 Y118.69 E23.10173
G1 X229.216 Y118.292 E23.14396
G1 X230.129 Y117.872 E23.19731
G1 X231.231 Y117.502 E23.25902
G1 X232.331 Y117.306 E23.31833
G1 X233.563 Y117.208 E23.38393
G1 X234.966 Y117.312 E23.45861
G1 X236.343 Y117.625 E23.53357
G1 X237.501 Y118.087 E23.59976
G1 X238.203 Y118.447 E23.64163
G1 X239.248 Y119.114 E23.70744
G1 X240.301 Y120.041 E23.78191
G1 X241.215 Y121.13 E23.85738
G1 X241.79 Y122.07 E23.91588
G1 X242.228 Y122.962 E23.96863
G1 X242.55 Y123.857 E24.01912
G1 X242.764 Y124.687 E24.06462
G1 X242.92 Y125.682 E24.11808
G1 X242.966 Y126.549 E24.16417
G1 X242.923 Y127.56 E24.21788
G1 X242.787 Y128.454 E24.26589
G1 X242.529 Y129.455 E24.32076
G1 X242.152 Y130.495 E24.37948
G1 X241.551 Y131.583 E24.44546
G1 X241.067 Y132.296 E24.49121
G1 X240.426 Y133.053 E24.54386
G1 X239.732 Y133.721 E24.59499
G1 X239.078 Y134.241 E24.63935
G1 X238.265 Y134.767 E24.69075
G1 X237.44 Y135.19 E24.73996
G1 X236.565 Y135.537 E24.78993
G1 X235.427 Y135.855 E24.85265
G1 X234.033 Y136.03 E24.92723
M204 S3000
M205 X10 Y10
G0 F6000 X234.006 Y135.469
M204 S1000
M205 X8 Y8
G1 F2700 X232.86 Y135.436 E24.98809
G1 X231.821 Y135.305 E25.04368
G1 X230.793 Y135.018 E25.10034
G1 X229.887 Y134.662 E25.15201
G1 X229.187 Y134.303 E25.19377
G1 X228.371 Y133.776 E25.24533
G1 X227.687 Y133.227 E25.29189
G1 X227.059 Y132.609 E25.33866
G1 X226.492 Y131.924 E25.38586
G1 X226.003 Y131.199 E25.43228
G1 X225.584 Y130.424 E25.47905
G1 X225.171 Y129.446 E25.53541
G1 X224.895 Y128.339 E25.59597
G1 X224.766 Y127.463 E25.64297
G1 X224.727 Y126.587 E25.68952
G1 X224.766 Y125.783 E25.73225
G1 X224.933 Y124.658 E25.79262
G1 X225.248 Y123.636 E25.84939
G1 X225.623 Y122.744 E25.90075
G1 X226.123 Y121.827 E25.9562
G1 X226.901 Y120.798 E26.02467
G1 X227.869 Y119.844 E26.09682
G1 X228.807 Y119.175 E26.15798
G1 X229.496 Y118.777 E26.20022
G1 X230.378 Y118.379 E26.25158
G1 X231.373 Y118.045 E26.3073
G1 X232.427 Y117.858 E26.36412
G1 X233.566 Y117.773 E26.42475
G1 X234.886 Y117.868 E26.495
G1 X236.174 Y118.161 E26.56512
G1 X237.169 Y118.551 E26.62185
G1 X238.021 Y118.988 E26.67268
G1 X238.911 Y119.564 E26.72895
G1 X239.901 Y120.436 E26.79898
G1 X240.758 Y121.457 E26.86974
G1 X241.312 Y122.362 E26.92607
G1 X241.729 Y123.227 E26.97704
G1 X242.015 Y124.023 E27.02194
G1 X242.222 Y124.825 E27.06591
G1 X242.367 Y125.78 E27.11719
G1 X242.407 Y126.62 E27.16183
G1 X242.358 Y127.549 E27.21121
G1 X242.235 Y128.358 E27.25465
G1 X242.002 Y129.264 E27.30431
G1 X241.64 Y130.262 E27.36066
G1 X241.087 Y131.269 E27.42164
G1 X240.642 Y131.924 E27.46368
G1 X240.016 Y132.671 E27.51542
G1 X239.383 Y133.283 E27.56215
G1 X238.743 Y133.792 E27.60556
G1 X237.985 Y134.282 E27.65347
G1 X237.209 Y134.68 E27.69977
G1 X236.383 Y135.005 E27.74689
G1 X235.321 Y135.304 E27.80545
G1 X234.006 Y135.469 E27.8758
M204 S3000
M205 X10 Y10
G0 F6000 X234.01 Y135.527
G0 X240.757 Y144.457
G0 X241.33 Y145.396
G0 X241.713 Y146.191
G0 X242.014 Y147.019
G0 X242.232 Y147.873
G0 X242.363 Y148.745
G0 X242.408 Y149.624
G0 X242.363 Y150.504
G0 X242.232 Y151.376
G0 X242.014 Y152.229
G0 X241.642 Y153.256
G0 X241.111 Y154.233
G0 X240.614 Y154.963
G0 X240.047 Y155.638
G0 X239.416 Y156.253
G0 X238.728 Y156.802
G0 X237.986 Y157.281
G0 X234.046 Y159.029
M204 S1000
M205 X8 Y8
G1 F2700 X232.79 Y158.992 E27.94251
G1 X231.707 Y158.855 E28.00045
G1 X230.574 Y158.538 E28.06291
G1 X229.759 Y158.218 E28.10938
G1 X228.932 Y157.802 E28.15852
G1 X228.073 Y157.256 E28.21255
G1 X227.296 Y156.628 E28.26559
G1 X226.726 Y156.072 E28.30786
G1 X226.113 Y155.35 E28.35813
G1 X225.583 Y154.585 E28.40754
G1 X225.095 Y153.706 E28.4609
G1 X224.638 Y152.62 E28.52345
G1 X224.346 Y151.454 E28.58725
G1 X224.221 Y150.632 E28.63139
G1 X224.168 Y149.697 E28.6811
G1 X224.21 Y148.686 E28.73482
G1 X224.386 Y147.528 E28.79699
G1 X224.759 Y146.343 E28.86294
G1 X225.095 Y145.543 E28.909
G1 X225.653 Y144.521 E28.97081
G1 X226.504 Y143.394 E29.04577
G1 X227.509 Y142.413 E29.12032
G1 X228.527 Y141.69 E29.18661
G1 X229.216 Y141.292 E29.22884
G1 X230.069 Y140.899 E29.2787
G1 X231.228 Y140.502 E29.34373
G1 X232.401 Y140.294 E29.40697
G1 X233.553 Y140.209 E29.46829
G1 X234.965 Y140.312 E29.54344
G1 X236.327 Y140.621 E29.61758
G1 X237.44 Y141.058 E29.68105
G1 X238.266 Y141.482 E29.73033
G1 X239.243 Y142.115 E29.79213
G1 X240.293 Y143.033 E29.86617
G1 X241.214 Y144.129 E29.94216
G1 X241.79 Y145.07 E30.00073
G1 X242.2 Y145.905 E30.05011
G1 X242.529 Y146.794 E30.10042
G1 X242.764 Y147.687 E30.14944
G1 X242.912 Y148.612 E30.19917
G1 X242.97 Y149.615 E30.2525
G1 X242.921 Y150.566 E30.30305
G1 X242.792 Y151.423 E30.34905
G1 X242.55 Y152.391 E30.40202
G1 X242.153 Y153.492 E30.46415
G1 X241.551 Y154.583 E30.53029
G1 X241.021 Y155.351 E30.57983
G1 X240.503 Y155.969 E30.62263
G1 X239.785 Y156.679 E30.67623
G1 X239 Y157.295 E30.7292
G1 X238.202 Y157.802 E30.77939
G1 X237.501 Y158.161 E30.82119
G1 X236.564 Y158.537 E30.87479
G1 X235.392 Y158.858 E30.93929
G1 X234.046 Y159.029 E31.01132
M204 S3000
M205 X10 Y10
G0 F6000 X234.015 Y158.468
M204 S1000
M205 X8 Y8
G1 F2700 X232.86 Y158.436 E31.07265
G1 X231.814 Y158.304 E31.12862
G1 X230.793 Y158.018 E31.1849
G1 X229.964 Y157.697 E31.23209
G1 X229.187 Y157.303 E31.27834
G1 X228.371 Y156.776 E31.3299
G1 X227.687 Y156.227 E31.37646
G1 X227.117 Y155.671 E31.41873
G1 X226.542 Y154.99 E31.46604
G1 X226.003 Y154.199 E31.51685
G1 X225.584 Y153.424 E31.56362
G1 X225.171 Y152.446 E31.61997
G1 X224.895 Y151.339 E31.68053
G1 X224.766 Y150.463 E31.72754
G1 X224.727 Y149.587 E31.77408
G1 X224.766 Y148.783 E31.81681
G1 X224.933 Y147.658 E31.87718
G1 X225.248 Y146.636 E31.93395
G1 X225.623 Y145.744 E31.98532
G1 X226.123 Y144.828 E32.04072
G1 X226.921 Y143.771 E32.11102
G1 X227.87 Y142.843 E32.18148
G1 X228.807 Y142.175 E32.24256
G1 X229.496 Y141.777 E32.2848
G1 X230.378 Y141.379 E32.33617
G1 X231.373 Y141.045 E32.39188
G1 X232.426 Y140.858 E32.44865
G1 X233.588 Y140.773 E32.5105
G1 X234.888 Y140.868 E32.57969
G1 X236.192 Y141.169 E32.65073
G1 X237.209 Y141.568 E32.70872
G1 X237.985 Y141.966 E32.75502
G1 X238.886 Y142.549 E32.81198
G1 X239.92 Y143.458 E32.88507
G1 X240.758 Y144.457 E32.95428
G1 X241.312 Y145.362 E33.01061
G1 X241.695 Y146.148 E33.05702
G1 X242.003 Y146.985 E33.10437
G1 X242.238 Y147.907 E33.15487
G1 X242.358 Y148.696 E33.19724
G1 X242.407 Y149.62 E33.24636
G1 X242.363 Y150.509 E33.2936
G1 X242.231 Y151.38 E33.34037
G1 X242.027 Y152.185 E33.38445
G1 X241.641 Y153.261 E33.44513
G1 X241.087 Y154.269 E33.50619
G1 X240.642 Y154.924 E33.54822
G1 X240.016 Y155.671 E33.59996
G1 X239.383 Y156.283 E33.6467
G1 X238.764 Y156.776 E33.6887
G1 X238.019 Y157.261 E33.73589
G1 X237.246 Y157.662 E33.78212
G1 X236.341 Y158.018 E33.83374
G1 X235.296 Y158.306 E33.89128
G1 X234.015 Y158.468 E33.95982
M204 S3000
M205 X10 Y10
G0 F6000 X234.021 Y158.527
G0 X328.226 Y151.86
M204 S1000
M205 X8 Y8
G1 F2700 X327.69 Y152.024 E33.98958
G1 X254.444 Y152.024 E37.87771
G1 X254.059 Y151.93 E37.89875
G1 X253.769 Y151.775 E37.9162
G1 X253.446 Y151.464 E37.94
G1 X253.246 Y151.09 E37.96252
G1 X253.167 Y150.754 E37.98084
G1 X253.167 Y125.493 E39.32177
G1 X253.307 Y125.012 E39.34837
G1 X253.538 Y124.673 E39.37014
G1 X253.769 Y124.473 E39.38636
G1 X254.059 Y124.318 E39.40382
G1 X254.432 Y124.224 E39.42424
G1 X327.69 Y124.224 E43.313
G1 X328.075 Y124.318 E43.33404
G1 X328.365 Y124.473 E43.35149
G1 X328.596 Y124.673 E43.36771
G1 X328.756 Y124.884 E43.38177
G1 X328.917 Y125.251 E43.40304
G1 X328.968 Y125.512 E43.41716
G1 X328.968 Y150.743 E44.7565
G1 X328.889 Y151.089 E44.77534
G1 X328.687 Y151.465 E44.798
G1 X328.488 Y151.68 E44.81355
G1 X328.226 Y151.86 E44.83042
M204 S3000
M205 X10 Y10
G0 F6000 X327.963 Y151.366
M204 S1000
M205 X8 Y8
G1 F2700 X327.672 Y151.458 E44.84663
G1 X254.494 Y151.464 E48.73115
G1 X254.262 Y151.408 E48.74382
G1 X253.949 Y151.194 E48.76394
G1 X253.811 Y150.991 E48.77697
G1 X253.728 Y150.683 E48.79391
G1 X253.732 Y125.523 E50.12948
G1 X253.811 Y125.256 E50.14426
G1 X253.949 Y125.053 E50.15729
G1 X254.262 Y124.84 E50.17739
G1 X254.462 Y124.79 E50.18833
G1 X327.64 Y124.784 E54.07285
G1 X327.872 Y124.84 E54.08552
G1 X328.046 Y124.933 E54.09599
G1 X328.281 Y125.18 E54.11409
G1 X328.406 Y125.565 E54.13558
G1 X328.408 Y150.69 E55.46929
G1 X328.373 Y150.864 E55.47871
G1 X328.239 Y151.129 E55.49448
G1 X327.963 Y151.366 E55.51379
M204 S3000
M205 X10 Y10
G0 F6000 X327.963 Y151.524
G0 X345.752 Y158.004
G0 X349.046 Y159.029
M204 S1000
M205 X8 Y8
G1 F2700 X347.79 Y158.992 E55.58049
G1 X346.707 Y158.855 E55.63844
G1 X345.574 Y158.538 E55.70089
G1 X344.759 Y158.218 E55.74737
G1 X343.932 Y157.802 E55.79651
G1 X343.073 Y157.256 E55.85054
G1 X342.296 Y156.628 E55.90357
G1 X341.726 Y156.072 E55.94584
G1 X341.113 Y155.35 E55.99612
G1 X340.583 Y154.584 E56.04556
G1 X340.094 Y153.704 E56.099
G1 X339.644 Y152.627 E56.16096
G1 X339.353 Y151.491 E56.22321
G1 X339.212 Y150.561 E56.27314
G1 X339.168 Y149.697 E56.31907
G1 X339.21 Y148.686 E56.37278
G1 X339.386 Y147.528 E56.43496
G1 X339.759 Y146.343 E56.5009
G1 X340.095 Y145.543 E56.54696
G1 X340.653 Y144.521 E56.60877
G1 X341.503 Y143.395 E56.68366
G1 X342.513 Y142.41 E56.75855
G1 X343.527 Y141.69 E56.82457
G1 X344.216 Y141.292 E56.86681
G1 X345.069 Y140.899 E56.91666
G1 X346.228 Y140.502 E56.98169
G1 X347.401 Y140.294 E57.04493
G1 X348.553 Y140.209 E57.10625
G1 X349.965 Y140.312 E57.1814
G1 X351.327 Y140.621 E57.25554
G1 X352.44 Y141.058 E57.31901
G1 X353.266 Y141.482 E57.3683
G1 X354.239 Y142.113 E57.42986
G1 X355.303 Y143.043 E57.50487
G1 X356.215 Y144.13 E57.58019
G1 X356.79 Y145.07 E57.63869
G1 X357.231 Y145.968 E57.69179
G1 X357.569 Y146.924 E57.74562
G1 X357.792 Y147.823 E57.79479
G1 X357.912 Y148.612 E57.83715
G1 X357.966 Y149.549 E57.88697
G1 X357.923 Y150.56 E57.94069
G1 X357.787 Y151.454 E57.98869
G1 X357.529 Y152.455 E58.04356
G1 X357.153 Y153.493 E58.10217
G1 X356.551 Y154.583 E58.16827
G1 X356.02 Y155.351 E58.21783
G1 X355.503 Y155.969 E58.2606
G1 X354.785 Y156.679 E58.3142
G1 X354 Y157.295 E58.36717
G1 X353.202 Y157.802 E58.41736
G1 X352.501 Y158.161 E58.45916
G1 X351.564 Y158.537 E58.51276
G1 X350.392 Y158.858 E58.57726
G1 X349.046 Y159.029 E58.64929
M204 S3000
M205 X10 Y10
G0 F6000 X349.015 Y158.468
M204 S1000
M205 X8 Y8
G1 F2700 X347.86 Y158.436 E58.71062
G1 X346.814 Y158.304 E58.76659
G1 X345.793 Y158.018 E58.82287
G1 X344.964 Y157.697 E58.87006
G1 X344.187 Y157.303 E58.91631
G1 X343.371 Y156.776 E58.96787
G1 X342.687 Y156.227 E59.01443
G1 X342.117 Y155.671 E59.0567
G1 X341.542 Y154.991 E59.10397
G1 X341.003 Y154.199 E59.15482
G1 X340.584 Y153.424 E59.20159
G1 X340.175 Y152.447 E59.25781
G1 X339.902 Y151.38 E59.31628
G1 X339.766 Y150.463 E59.36549
G1 X339.727 Y149.587 E59.41203
G1 X339.766 Y148.783 E59.45476
G1 X339.933 Y147.658 E59.51514
G1 X340.248 Y146.636 E59.57191
G1 X340.622 Y145.744 E59.62325
G1 X341.123 Y144.827 E59.67872
G1 X341.925 Y143.766 E59.74932
G1 X342.87 Y142.846 E59.81933
G1 X343.737 Y142.22 E59.87609
G1 X344.496 Y141.777 E59.92275
G1 X345.378 Y141.379 E59.97411
G1 X346.373 Y141.045 E60.02983
G1 X347.426 Y140.858 E60.0866
G1 X348.588 Y140.773 E60.14844
G1 X349.888 Y140.868 E60.21764
G1 X351.192 Y141.169 E60.28868
G1 X352.209 Y141.568 E60.34667
G1 X352.985 Y141.966 E60.39296
G1 X353.906 Y142.563 E60.45123
G1 X354.901 Y143.435 E60.52146
G1 X355.758 Y144.457 E60.59226
G1 X356.312 Y145.362 E60.64858
G1 X356.695 Y146.148 E60.695
G1 X357.003 Y146.985 E60.74234
G1 X357.238 Y147.907 E60.79285
G1 X357.367 Y148.78 E60.83969
G1 X357.407 Y149.662 E60.88656
G1 X357.367 Y150.464 E60.92918
G1 X357.235 Y151.358 E60.97716
G1 X357.027 Y152.185 E61.02242
G1 X356.641 Y153.261 E61.0831
G1 X356.087 Y154.269 E61.14416
G1 X355.591 Y154.991 E61.19066
G1 X355.016 Y155.671 E61.23793
G1 X354.383 Y156.283 E61.28467
G1 X353.764 Y156.776 E61.32668
G1 X353.019 Y157.261 E61.37386
G1 X352.246 Y157.662 E61.42009
G1 X351.341 Y158.018 E61.47171
G1 X350.296 Y158.306 E61.52925
G1 X349.015 Y158.468 E61.5978
M204 S3000
M205 X10 Y10
G0 F6000 X349.021 Y158.527
G0 X362.167 Y161.724
M204 S1000
M205 X8 Y8
G1 F2700 X362.167 Y114.524 E64.10332
G1 X219.968 Y114.525 E71.6517
G1 X219.967 Y161.724 E74.15717
G1 X362.167 Y161.724 E81.7056
M204 S3000
M205 X10 Y10
G0 F6000 X362.727 Y162.284
M204 S1000
M205 X8 Y8
G1 F2700 X362.727 Y113.964 E84.27058
G1 X219.408 Y113.965 E91.8784
G1 X219.407 Y162.284 E94.44333
G1 X362.727 Y162.284 E102.05121
M204 S3000
M205 X10 Y10
G0 F6000 X362.667 Y162.284
G0 X356.713 Y146.191
G0 X356.33 Y145.396
G0 X355.866 Y144.636
G0 X349.033 Y136.03
M204 S1000
M205 X8 Y8
G1 F2700 X347.79 Y135.992 E102.11722
G1 X346.707 Y135.855 E102.17517
G1 X345.574 Y135.538 E102.23762
G1 X344.759 Y135.218 E102.2841
G1 X343.868 Y134.769 E102.33706
G1 X343.134 Y134.295 E102.38345
G1 X342.359 Y133.686 E102.43577
G1 X341.689 Y133.035 E102.48536
G1 X341.113 Y132.35 E102.53287
G1 X340.583 Y131.584 E102.58231
G1 X340.095 Y130.706 E102.63563
G1 X339.638 Y129.623 E102.69803
G1 X339.346 Y128.454 E102.76199
G1 X339.221 Y127.631 E102.80618
G1 X339.168 Y126.697 E102.85584
G1 X339.21 Y125.684 E102.90966
