;FLAVOR:Marlin
;TIME:11308
;Filament used: 13.7962m
;Layer height: 0.2
;MINX:215.51
;MINY:285.675
;MINZ:0.2
;MAXX:377.808
;MAXY:353.975
;MAXZ:36
;TARGET_MACHINE.NAME:Anycubic Kobra Max
;Generated with Cura_SteamEngine 5.5.0
M140 S60
M105
M190 S60
M104 S195
M105
M109 S195
M82 ;absolute extrusion mode
G28 ;Home
G1 Z15.0 F1200 ;Move the platform down 15mm
;Prime the extruder
G92 E0
G1 F200 E3
G92 E0
G92 E0
G92 E0
G1 F2400 E-6
;LAYER_COUNT:180
;LAYER:0
M107
M204 S3000
M205 X10 Y10
G1 F1200 Z0.275
G0 F6000 X217.893 Y286.587 Z0.275
M204 S1000
M205 X8 Y8
;TYPE:SKIRT
G1 F1200 Z0.2
G1 F2400 E0
G1 X218.891 Y286.058 E0.05996
G1 X219.804 Y285.782 E0.11059
G1 X220.659 Y285.69 E0.15624
G1 X221.68 Y285.675 E0.21044
G1 X371.785 Y285.675 E8.17849
G1 X372.669 Y285.692 E8.22543
G1 X373.342 Y285.769 E8.26138
G1 X374 Y285.936 E8.29742
G1 X374.685 Y286.183 E8.33607
G1 X375.525 Y286.672 E8.38767
G1 X376.219 Y287.255 E8.43578
G1 X376.891 Y288.084 E8.49243
G1 X377.208 Y288.594 E8.52431
G1 X377.499 Y289.268 E8.56328
G1 X377.696 Y290.062 E8.6067
G1 X377.795 Y290.914 E8.65223
G1 X377.806 Y291.696 E8.69375
G1 X377.808 Y347.985 E11.68175
G1 X377.789 Y348.851 E11.72773
G1 X377.674 Y349.797 E11.77832
G1 X377.393 Y350.671 E11.82705
G1 X377.09 Y351.294 E11.86382
G1 X376.471 Y352.114 E11.91836
G1 X375.731 Y352.837 E11.97328
G1 X374.97 Y353.331 E12.02144
G1 X374.353 Y353.62 E12.05761
G1 X373.474 Y353.853 E12.10588
G1 X372.592 Y353.963 E12.15306
G1 X371.805 Y353.974 E12.19484
G1 X221.432 Y353.975 E20.17712
G1 X220.641 Y353.961 E20.21911
G1 X220.037 Y353.906 E20.25131
G1 X219.097 Y353.647 E20.30307
G1 X218.53 Y353.427 E20.33535
G1 X217.695 Y352.921 E20.38718
G1 X217.023 Y352.332 E20.43461
G1 X216.545 Y351.742 E20.47492
G1 X216.149 Y351.088 E20.51551
G1 X215.877 Y350.533 E20.54832
G1 X215.616 Y349.568 E20.60138
G1 X215.515 Y348.761 E20.64455
G1 X215.51 Y291.698 E23.67364
G1 X215.535 Y290.754 E23.72377
G1 X215.601 Y290.164 E23.75528
G1 X215.798 Y289.395 E23.79742
G1 X216.045 Y288.76 E23.83359
G1 X216.388 Y288.151 E23.87069
G1 X216.735 Y287.656 E23.90278
G1 X217.319 Y287.062 E23.947
G1 X217.893 Y286.587 E23.98655
M204 S3000
M205 X10 Y10
G0 F6000 X218.205 Y287.055
M204 S1000
M205 X8 Y8
G1 F2400 X219.106 Y286.578 E24.04067
G1 X219.913 Y286.334 E24.08542
G1 X220.667 Y286.25 E24.12569
G1 X221.688 Y286.235 E24.17989
G1 X371.776 Y286.235 E32.14704
G1 X372.61 Y286.249 E32.19132
G1 X373.204 Y286.312 E32.22303
G1 X373.862 Y286.479 E32.25906
G1 X374.445 Y286.691 E32.29199
G1 X375.202 Y287.132 E32.3385
G1 X375.818 Y287.649 E32.38119
G1 X376.415 Y288.38 E32.43129
G1 X376.732 Y288.89 E32.46317
G1 X376.965 Y289.443 E32.49502
G1 X377.152 Y290.197 E32.53626
G1 X377.235 Y290.922 E32.57499
G1 X377.246 Y291.696 E32.61608
G1 X377.248 Y347.975 E35.60355
G1 X377.233 Y348.784 E35.6465
G1 X377.125 Y349.676 E35.6942
G1 X376.86 Y350.499 E35.7401
G1 X376.611 Y351 E35.76979
G1 X376.08 Y351.713 E35.81699
G1 X375.38 Y352.397 E35.86894
G1 X374.665 Y352.861 E35.91418
G1 X374.16 Y353.092 E35.94366
G1 X373.403 Y353.298 E35.98531
G1 X372.584 Y353.403 E36.02914
G1 X371.805 Y353.414 E36.0705
G1 X221.441 Y353.415 E44.05229
G1 X220.692 Y353.403 E44.09206
G1 X220.134 Y353.352 E44.1218
G1 X219.3 Y353.125 E44.16768
G1 X218.778 Y352.922 E44.19742
G1 X218.027 Y352.467 E44.24403
G1 X217.428 Y351.943 E44.28627
G1 X217.023 Y351.45 E44.32014
G1 X216.652 Y350.842 E44.35795
G1 X216.405 Y350.337 E44.38779
G1 X216.172 Y349.498 E44.43401
G1 X216.071 Y348.691 E44.47719
G1 X216.07 Y291.712 E47.50181
G1 X216.092 Y290.816 E47.54939
G1 X216.158 Y290.226 E47.5809
G1 X216.322 Y289.593 E47.61561
G1 X216.534 Y289.033 E47.6474
G1 X216.847 Y288.472 E47.6815
G1 X217.167 Y288.015 E47.71112
G1 X217.718 Y287.455 E47.75282
G1 X218.205 Y287.055 E47.78627
M204 S3000
M205 X10 Y10
G0 F6000 X218.514 Y287.525
M204 S1000
M205 X8 Y8
G1 F2400 X219.322 Y287.097 E47.83481
G1 X220.026 Y286.885 E47.87384
G1 X220.675 Y286.81 E47.90852
G1 X221.696 Y286.795 E47.96272
G1 X371.767 Y286.795 E55.92897
G1 X372.557 Y286.807 E55.97091
G1 X373.066 Y286.855 E55.99805
G1 X373.724 Y287.022 E56.03408
G1 X374.204 Y287.199 E56.06124
G1 X374.879 Y287.592 E56.1027
G1 X375.419 Y288.045 E56.14012
G1 X375.943 Y288.681 E56.18386
G1 X376.218 Y289.113 E56.21105
G1 X376.422 Y289.582 E56.23819
G1 X376.596 Y290.263 E56.27551
G1 X376.675 Y290.93 E56.31116
G1 X376.686 Y291.696 E56.35183
G1 X376.688 Y347.967 E59.33887
G1 X376.677 Y348.717 E59.37869
G1 X376.575 Y349.558 E59.42366
G1 X376.359 Y350.249 E59.46209
G1 X376.131 Y350.707 E59.48924
G1 X375.656 Y351.345 E59.53147
G1 X375.029 Y351.958 E59.57801
G1 X374.432 Y352.352 E59.61598
G1 X373.967 Y352.565 E59.64313
G1 X373.329 Y352.743 E59.67829
G1 X372.576 Y352.843 E59.71862
G1 X371.805 Y352.854 E59.75955
G1 X221.449 Y352.855 E67.74092
G1 X220.743 Y352.845 E67.7784
G1 X220.233 Y352.798 E67.80559
G1 X219.503 Y352.603 E67.8457
G1 X219.026 Y352.417 E67.87288
G1 X218.358 Y352.013 E67.91432
G1 X217.829 Y351.55 E67.95163
G1 X217.5 Y351.157 E67.97884
G1 X217.155 Y350.596 E68.0138
G1 X216.93 Y350.136 E68.04098
G1 X216.727 Y349.425 E68.08024
G1 X216.631 Y348.691 E68.11953
G1 X216.63 Y291.724 E71.14352
G1 X216.649 Y290.873 E71.1887
G1 X216.701 Y290.364 E71.21586
G1 X216.848 Y289.785 E71.24757
G1 X217.024 Y289.304 E71.27476
G1 X217.306 Y288.793 E71.30575
G1 X217.599 Y288.374 E71.33289
G1 X218.117 Y287.848 E71.37207
G1 X218.514 Y287.525 E71.39924
M204 S3000
M205 X10 Y10
G1 F2400 E65.39924
;MESH:Gehaeuse-V02.stl
G0 F6000 X220.58 Y289.455
G0 X220.87 Y290.499
G0 X372.006 Y348.174
M204 S1000
M205 X8 Y8
;TYPE:WALL-INNER
G1 F2400 E71.39924
G1 F2700 X372.006 Y291.48 E74.40874
G1 X221.315 Y291.48 E82.4079
G1 X221.311 Y348.171 E85.41723
G1 X372.006 Y348.174 E93.4166
M204 S3000
M205 X10 Y10
G0 F6000 X372.345 Y348.734
M204 S1000
M205 X8 Y8
G1 F2700 X372.517 Y348.679 E93.42619
G1 X372.566 Y348.538 E93.43411
G1 X372.566 Y291.061 E96.48517
G1 X372.492 Y290.948 E96.49234
G1 X372.398 Y290.92 E96.49755
G1 X220.925 Y290.92 E104.53822
G1 X220.786 Y291.002 E104.54679
G1 X220.755 Y291.101 E104.55229
G1 X220.75 Y348.571 E107.60298
G1 X220.814 Y348.684 E107.60988
G1 X220.947 Y348.731 E107.61736
G1 X372.345 Y348.734 E115.65405
M204 S3000
M205 X10 Y10
G0 F6000 X372.422 Y349.294
M204 S1000
M205 X8 Y8
;TYPE:WALL-OUTER
G1 F2700 X372.755 Y349.2 E115.67242
G1 X373.016 Y348.954 E115.69146
G1 X373.126 Y348.63 E115.70962
G1 X373.126 Y291.005 E118.76854
G1 X372.988 Y290.653 E118.78861
G1 X372.728 Y290.433 E118.80669
G1 X372.476 Y290.36 E118.82061
G1 X220.849 Y290.36 E126.86946
G1 X220.615 Y290.426 E126.88236
G1 X220.343 Y290.637 E126.90064
G1 X220.195 Y291.018 E126.92233
G1 X220.19 Y348.646 E129.98141
G1 X220.244 Y348.84 E129.9921
G1 X220.408 Y349.087 E130.00784
G1 X220.528 Y349.179 E130.01587
G1 X220.855 Y349.291 E130.03421
G1 X372.422 Y349.294 E138.07987
M204 S3000
M205 X10 Y10
G0 F6000 X372.614 Y349.24
G0 X372.45 Y348.643
G0 X371.466 Y347.634
M204 S1000
M205 X8 Y8
;TYPE:SKIN
G1 F2700 X221.852 Y347.631 E146.02186
G1 X221.855 Y292.02 E148.97387
G1 X371.466 Y292.02 E156.91569
G1 X371.466 Y347.634 E159.86786
M204 S3000
M205 X10 Y10
G0 F6000 X371.185 Y292.781
M204 S1000
M205 X8 Y8
G1 F2700 X370.704 Y292.3 E159.90397
M204 S3000
M205 X10 Y10
G0 F6000 X369.912 Y292.3
M204 S1000
M205 X8 Y8
G1 F2700 X371.185 Y293.573 E159.99954
M204 S3000
M205 X10 Y10
G0 F6000 X371.185 Y294.365
M204 S1000
M205 X8 Y8
G1 F2700 X369.12 Y292.3 E160.15456
M204 S3000
M205 X10 Y10
G0 F6000 X368.328 Y292.3
M204 S1000
M205 X8 Y8
G1 F2700 X371.185 Y295.156 E160.369
M204 S3000
M205 X10 Y10
G0 F6000 X371.185 Y295.948
M204 S1000
M205 X8 Y8
G1 F2700 X367.536 Y292.3 E160.64289
M204 S3000
M205 X10 Y10
G0 F6000 X366.744 Y292.3
M204 S1000
M205 X8 Y8
G1 F2700 X371.185 Y296.74 E160.97625
M204 S3000
M205 X10 Y10
G0 F6000 X371.185 Y297.532
M204 S1000
M205 X8 Y8
G1 F2700 X365.952 Y292.3 E161.36906
M204 S3000
M205 X10 Y10
G0 F6000 X365.16 Y292.3
M204 S1000
M205 X8 Y8
G1 F2700 X371.185 Y298.324 E161.82132
M204 S3000
M205 X10 Y10
G0 F6000 X371.185 Y299.116
M204 S1000
M205 X8 Y8
G1 F2700 X364.368 Y292.3 E162.33304
M204 S3000
M205 X10 Y10
G0 F6000 X363.576 Y292.3
M204 S1000
M205 X8 Y8
G1 F2700 X371.185 Y299.908 E162.90422
M204 S3000
M205 X10 Y10
G0 F6000 X371.185 Y300.7
M204 S1000
M205 X8 Y8
G1 F2700 X362.784 Y292.3 E163.53485
M204 S3000
M205 X10 Y10
G0 F6000 X361.992 Y292.3
M204 S1000
M205 X8 Y8
G1 F2700 X371.185 Y301.492 E164.22494
M204 S3000
M205 X10 Y10
G0 F6000 X371.185 Y302.284
M204 S1000
M205 X8 Y8
G1 F2700 X361.2 Y292.3 E164.97449
M204 S3000
M205 X10 Y10
G0 F6000 X360.408 Y292.3
M204 S1000
M205 X8 Y8
G1 F2700 X371.185 Y303.076 E165.78349
M204 S3000
M205 X10 Y10
G0 F6000 X371.185 Y303.868
M204 S1000
M205 X8 Y8
G1 F2700 X359.616 Y292.3 E166.65195
M204 S3000
M205 X10 Y10
G0 F6000 X358.824 Y292.3
M204 S1000
M205 X8 Y8
G1 F2700 X371.185 Y304.66 E167.57986
M204 S3000
M205 X10 Y10
G0 F6000 X371.185 Y305.452
M204 S1000
M205 X8 Y8
G1 F2700 X358.032 Y292.3 E168.56723
M204 S3000
M205 X10 Y10
G0 F6000 X357.24 Y292.3
M204 S1000
M205 X8 Y8
G1 F2700 X371.185 Y306.244 E169.61406
M204 S3000
M205 X10 Y10
G0 F6000 X371.185 Y307.036
M204 S1000
M205 X8 Y8
G1 F2700 X356.448 Y292.3 E170.72034
M204 S3000
M205 X10 Y10
G0 F6000 X355.657 Y292.3
M204 S1000
M205 X8 Y8
G1 F2700 X371.185 Y307.828 E171.88604
M204 S3000
M205 X10 Y10
G0 F6000 X371.185 Y308.62
M204 S1000
M205 X8 Y8
G1 F2700 X354.865 Y292.3 E173.1112
M204 S3000
M205 X10 Y10
G0 F6000 X354.073 Y292.3
M204 S1000
M205 X8 Y8
G1 F2700 X371.185 Y309.412 E174.39582
M204 S3000
M205 X10 Y10
G0 F6000 X371.185 Y310.204
M204 S1000
M205 X8 Y8
G1 F2700 X353.281 Y292.3 E175.73989
M204 S3000
M205 X10 Y10
G0 F6000 X352.489 Y292.3
M204 S1000
M205 X8 Y8
G1 F2700 X371.185 Y310.996 E177.14341
M204 S3000
M205 X10 Y10
G0 F6000 X371.185 Y311.788
M204 S1000
M205 X8 Y8
G1 F2700 X351.697 Y292.3 E178.6064
M204 S3000
M205 X10 Y10
G0 F6000 X350.905 Y292.3
M204 S1000
M205 X8 Y8
G1 F2700 X371.185 Y312.58 E180.12883
M204 S3000
M205 X10 Y10
G0 F6000 X371.185 Y313.372
M204 S1000
M205 X8 Y8
G1 F2700 X350.113 Y292.3 E181.71073
M204 S3000
M205 X10 Y10
G0 F6000 X349.321 Y292.3
M204 S1000
M205 X8 Y8
G1 F2700 X371.185 Y314.164 E183.35208
M204 S3000
M205 X10 Y10
G0 F6000 X371.185 Y314.955
M204 S1000
M205 X8 Y8
G1 F2700 X348.529 Y292.3 E185.05285
M204 S3000
M205 X10 Y10
G0 F6000 X347.737 Y292.3
M204 S1000
M205 X8 Y8
G1 F2700 X371.185 Y315.747 E186.81308
M204 S3000
M205 X10 Y10
G0 F6000 X371.185 Y316.539
M204 S1000
M205 X8 Y8
G1 F2700 X346.945 Y292.3 E188.63276
M204 S3000
M205 X10 Y10
G0 F6000 X346.153 Y292.3
M204 S1000
M205 X8 Y8
G1 F2700 X371.185 Y317.331 E190.5119
M204 S3000
M205 X10 Y10
G0 F6000 X371.185 Y318.123
M204 S1000
M205 X8 Y8
G1 F2700 X345.361 Y292.3 E192.45049
M204 S3000
M205 X10 Y10
G0 F6000 X344.569 Y292.3
M204 S1000
M205 X8 Y8
G1 F2700 X371.185 Y318.915 E194.44854
M204 S3000
M205 X10 Y10
G0 F6000 X371.185 Y319.707
M204 S1000
M205 X8 Y8
G1 F2700 X343.777 Y292.3 E196.50605
M204 S3000
M205 X10 Y10
G0 F6000 X342.985 Y292.3
M204 S1000
M205 X8 Y8
G1 F2700 X371.185 Y320.499 E198.62301
M204 S3000
M205 X10 Y10
G0 F6000 X371.185 Y321.291
M204 S1000
M205 X8 Y8
G1 F2700 X342.193 Y292.3 E200.79943
M204 S3000
M205 X10 Y10
G0 F6000 X341.401 Y292.3
M204 S1000
M205 X8 Y8
G1 F2700 X371.185 Y322.083 E203.03531
M204 S3000
M205 X10 Y10
G0 F6000 X371.185 Y322.875
M204 S1000
M205 X8 Y8
G1 F2700 X340.609 Y292.3 E205.33064
M204 S3000
M205 X10 Y10
G0 F6000 X339.817 Y292.3
M204 S1000
M205 X8 Y8
G1 F2700 X371.185 Y323.667 E207.68543
M204 S3000
M205 X10 Y10
G0 F6000 X371.185 Y324.459
M204 S1000
M205 X8 Y8
G1 F2700 X339.025 Y292.3 E210.09967
M204 S3000
M205 X10 Y10
G0 F6000 X338.233 Y292.3
M204 S1000
M205 X8 Y8
G1 F2700 X371.185 Y325.251 E212.57337
M204 S3000
M205 X10 Y10
G0 F6000 X371.185 Y326.043
M204 S1000
M205 X8 Y8
G1 F2700 X337.441 Y292.3 E215.10653
M204 S3000
M205 X10 Y10
G0 F6000 X336.65 Y292.3
M204 S1000
M205 X8 Y8
G1 F2700 X371.185 Y326.835 E217.6991
M204 S3000
M205 X10 Y10
G0 F6000 X371.185 Y327.627
M204 S1000
M205 X8 Y8
G1 F2700 X335.858 Y292.3 E220.35113
M204 S3000
M205 X10 Y10
G0 F6000 X335.066 Y292.3
M204 S1000
M205 X8 Y8
G1 F2700 X371.185 Y328.419 E223.06262
M204 S3000
M205 X10 Y10
G0 F6000 X371.185 Y329.211
M204 S1000
M205 X8 Y8
G1 F2700 X334.274 Y292.3 E225.83357
M204 S3000
M205 X10 Y10
G0 F6000 X333.482 Y292.3
M204 S1000
M205 X8 Y8
G1 F2700 X371.185 Y330.003 E228.66397
M204 S3000
M205 X10 Y10
G0 F6000 X371.185 Y330.795
M204 S1000
M205 X8 Y8
G1 F2700 X332.69 Y292.3 E231.55382
M204 S3000
M205 X10 Y10
G0 F6000 X331.898 Y292.3
M204 S1000
M205 X8 Y8
G1 F2700 X371.185 Y331.587 E234.50313
M204 S3000
M205 X10 Y10
G0 F6000 X371.185 Y332.379
M204 S1000
M205 X8 Y8
G1 F2700 X331.106 Y292.3 E237.5119
M204 S3000
M205 X10 Y10
G0 F6000 X330.314 Y292.3
M204 S1000
M205 X8 Y8
G1 F2700 X371.185 Y333.171 E240.58013
M204 S3000
M205 X10 Y10
G0 F6000 X371.185 Y333.962
M204 S1000
M205 X8 Y8
G1 F2700 X329.522 Y292.3 E243.70777
M204 S3000
M205 X10 Y10
G0 F6000 X328.73 Y292.3
M204 S1000
M205 X8 Y8
G1 F2700 X371.185 Y334.754 E246.89487
M204 S3000
M205 X10 Y10
G0 F6000 X371.185 Y335.546
M204 S1000
M205 X8 Y8
G1 F2700 X327.938 Y292.3 E250.14143
M204 S3000
M205 X10 Y10
G0 F6000 X327.146 Y292.3
M204 S1000
M205 X8 Y8
G1 F2700 X371.185 Y336.338 E253.44744
M204 S3000
M205 X10 Y10
G0 F6000 X371.185 Y337.13
M204 S1000
M205 X8 Y8
G1 F2700 X326.354 Y292.3 E256.81291
M204 S3000
M205 X10 Y10
G0 F6000 X325.562 Y292.3
M204 S1000
M205 X8 Y8
G1 F2700 X371.185 Y337.922 E260.23783
M204 S3000
M205 X10 Y10
G0 F6000 X371.185 Y338.714
M204 S1000
M205 X8 Y8
G1 F2700 X324.77 Y292.3 E263.72221
M204 S3000
M205 X10 Y10
G0 F6000 X323.978 Y292.3
M204 S1000
M205 X8 Y8
G1 F2700 X371.185 Y339.506 E267.26605
M204 S3000
M205 X10 Y10
G0 F6000 X371.185 Y340.298
M204 S1000
M205 X8 Y8
G1 F2700 X323.186 Y292.3 E270.86934
M204 S3000
M205 X10 Y10
G0 F6000 X322.394 Y292.3
M204 S1000
M205 X8 Y8
G1 F2700 X371.185 Y341.09 E274.53209
M204 S3000
M205 X10 Y10
G0 F6000 X371.185 Y341.882
M204 S1000
M205 X8 Y8
G1 F2700 X321.602 Y292.3 E278.25429
M204 S3000
M205 X10 Y10
G0 F6000 X320.81 Y292.3
M204 S1000
M205 X8 Y8
G1 F2700 X371.185 Y342.674 E282.03596
M204 S3000
M205 X10 Y10
G0 F6000 X371.185 Y343.466
M204 S1000
M205 X8 Y8
G1 F2700 X320.018 Y292.3 E285.87707
M204 S3000
M205 X10 Y10
G0 F6000 X319.226 Y292.3
M204 S1000
M205 X8 Y8
G1 F2700 X371.185 Y344.258 E289.77765
M204 S3000
M205 X10 Y10
G0 F6000 X371.185 Y345.05
M204 S1000
M205 X8 Y8
G1 F2700 X318.434 Y292.3 E293.73768
M204 S3000
M205 X10 Y10
G0 F6000 X317.642 Y292.3
M204 S1000
M205 X8 Y8
G1 F2700 X371.185 Y345.842 E297.75716
M204 S3000
M205 X10 Y10
G0 F6000 X371.185 Y346.634
M204 S1000
M205 X8 Y8
G1 F2700 X316.851 Y292.3 E301.83607
M204 S3000
M205 X10 Y10
G0 F6000 X316.059 Y292.3
M204 S1000
M205 X8 Y8
G1 F2700 X371.112 Y347.353 E305.96895
M204 S3000
M205 X10 Y10
G0 F6000 X370.32 Y347.353
M204 S1000
M205 X8 Y8
G1 F2700 X315.267 Y292.3 E310.10183
M204 S3000
M205 X10 Y10
G0 F6000 X314.475 Y292.3
M204 S1000
M205 X8 Y8
G1 F2700 X369.528 Y347.353 E314.23471
M204 S3000
M205 X10 Y10
G0 F6000 X368.736 Y347.353
M204 S1000
M205 X8 Y8
G1 F2700 X313.683 Y292.3 E318.36759
M204 S3000
M205 X10 Y10
G0 F6000 X312.891 Y292.3
M204 S1000
M205 X8 Y8
G1 F2700 X367.944 Y347.353 E322.50047
M204 S3000
M205 X10 Y10
G0 F6000 X367.152 Y347.353
M204 S1000
M205 X8 Y8
G1 F2700 X312.099 Y292.3 E326.63335
M204 S3000
M205 X10 Y10
G0 F6000 X311.307 Y292.3
M204 S1000
M205 X8 Y8
G1 F2700 X366.36 Y347.353 E330.76623
M204 S3000
M205 X10 Y10
G0 F6000 X365.568 Y347.353
M204 S1000
M205 X8 Y8
G1 F2700 X310.515 Y292.3 E334.89911
M204 S3000
M205 X10 Y10
G0 F6000 X309.723 Y292.3
M204 S1000
M205 X8 Y8
G1 F2700 X364.776 Y347.353 E339.032
M204 S3000
M205 X10 Y10
G0 F6000 X363.984 Y347.353
M204 S1000
M205 X8 Y8
G1 F2700 X308.931 Y292.3 E343.16488
M204 S3000
M205 X10 Y10
G0 F6000 X308.139 Y292.3
M204 S1000
M205 X8 Y8
G1 F2700 X363.192 Y347.353 E347.29776
M204 S3000
M205 X10 Y10
G0 F6000 X362.4 Y347.353
M204 S1000
M205 X8 Y8
G1 F2700 X307.347 Y292.3 E351.43064
M204 S3000
M205 X10 Y10
G0 F6000 X306.555 Y292.3
M204 S1000
M205 X8 Y8
G1 F2700 X361.608 Y347.353 E355.56352
M204 S3000
M205 X10 Y10
G0 F6000 X360.816 Y347.353
M204 S1000
M205 X8 Y8
