;FLAVOR:Marlin
;TIME:5900
;Filament used: 7.43461m
;Layer height: 0.2
;MINX:121.6
;MINY:168.601
;MINZ:0.2
;MAXX:280.399
;MAXY:233.4
;MAXZ:8
;TARGET_MACHINE.NAME:Anycubic Kobra Max
;Generated with Cura_SteamEngine 5.5.0
M140 S60
M105
M190 S60
M104 S195
M105
M109 S195
M82 ;absolute extrusion mode
G28 ;Home
G1 Z15.0 F1200 ;Move the platform down 15mm
;Prime the extruder
G92 E0
G1 F200 E3
G92 E0
G92 E0
G92 E0
G1 F2400 E-6
;LAYER_COUNT:40
;LAYER:0
M107
M204 S3000
M205 X10 Y10
G1 F1200 Z0.275
G0 F6000 X123.913 Y169.575 Z0.275
M204 S1000
M205 X8 Y8
;TYPE:SKIRT
G1 F1200 Z0.2
G1 F2400 E0
G1 X124.757 Y169.111 E0.05113
G1 X125.464 Y168.839 E0.09134
G1 X126.214 Y168.677 E0.13207
G1 X126.887 Y168.611 E0.16796
G1 X127.545 Y168.601 E0.2029
G1 X274.475 Y168.601 E8.00241
G1 X275.301 Y168.62 E8.04627
G1 X276.219 Y168.733 E8.09536
G1 X277.357 Y169.141 E8.15954
G1 X278.111 Y169.593 E8.2062
G1 X278.772 Y170.154 E8.25223
G1 X279.185 Y170.587 E8.28399
G1 X279.585 Y171.143 E8.32035
G1 X279.944 Y171.874 E8.36358
G1 X280.188 Y172.545 E8.40148
G1 X280.382 Y173.494 E8.4529
G1 X280.399 Y174.625 E8.51294
G1 X280.399 Y227.437 E11.31637
G1 X280.382 Y228.365 E11.36564
G1 X280.305 Y229.04 E11.4017
G1 X280.156 Y229.627 E11.43385
G1 X279.736 Y230.56 E11.48816
G1 X279.406 Y231.121 E11.52271
G1 X278.975 Y231.663 E11.55947
G1 X278.359 Y232.209 E11.60317
G1 X277.519 Y232.78 E11.65708
G1 X276.739 Y233.109 E11.70202
G1 X275.785 Y233.324 E11.75393
G1 X275.187 Y233.391 E11.78588
G1 X127.592 Y233.4 E19.62069
G1 X126.821 Y233.386 E19.66162
G1 X125.92 Y233.286 E19.70974
G1 X125.09 Y233.046 E19.75561
G1 X124.202 Y232.6 E19.80836
G1 X123.635 Y232.218 E19.84465
G1 X123.142 Y231.764 E19.88022
G1 X122.677 Y231.204 E19.91886
G1 X122.33 Y230.702 E19.95126
G1 X121.919 Y229.783 E20.0047
G1 X121.728 Y229.193 E20.03762
G1 X121.625 Y228.333 E20.08359
G1 X121.601 Y227.118 E20.1481
G1 X121.6 Y174.56 E22.93805
G1 X121.612 Y173.846 E22.97595
G1 X121.686 Y173.054 E23.01818
G1 X121.926 Y172.185 E23.06604
G1 X122.23 Y171.495 E23.10606
G1 X122.684 Y170.764 E23.15174
G1 X123.32 Y170.065 E23.20191
G1 X123.913 Y169.575 E23.24274
M204 S3000
M205 X10 Y10
G0 F6000 X124.23 Y170.04
M204 S1000
M205 X8 Y8
G1 F2400 X125.027 Y169.602 E23.29101
G1 X125.585 Y169.386 E23.32278
G1 X126.27 Y169.234 E23.36002
G1 X126.896 Y169.171 E23.39342
G1 X127.554 Y169.161 E23.42835
G1 X274.464 Y169.161 E31.2268
G1 X275.232 Y169.176 E31.26758
G1 X276.09 Y169.282 E31.31347
G1 X277.117 Y169.65 E31.37138
G1 X277.782 Y170.049 E31.41255
G1 X278.367 Y170.541 E31.45312
G1 X278.78 Y170.974 E31.48489
G1 X279.101 Y171.428 E31.5144
G1 X279.441 Y172.121 E31.55538
G1 X279.639 Y172.657 E31.58571
G1 X279.823 Y173.556 E31.63442
G1 X279.839 Y174.633 E31.6916
G1 X279.839 Y227.428 E34.49412
G1 X279.825 Y228.306 E34.54074
G1 X279.762 Y228.902 E34.57255
G1 X279.625 Y229.441 E34.60207
G1 X279.225 Y230.33 E34.65382
G1 X278.968 Y230.772 E34.68096
G1 X278.567 Y231.276 E34.71515
G1 X278.044 Y231.746 E34.75248
G1 X277.251 Y232.285 E34.80337
G1 X276.567 Y232.574 E34.84279
G1 X275.723 Y232.767 E34.88875
G1 X275.125 Y232.834 E34.92069
G1 X127.601 Y232.84 E42.75173
G1 X126.883 Y232.829 E42.78985
G1 X126.028 Y232.734 E42.83552
G1 X125.292 Y232.521 E42.87619
G1 X124.51 Y232.132 E42.92255
G1 X124.011 Y231.803 E42.95428
G1 X123.572 Y231.405 E42.98574
G1 X123.138 Y230.886 E43.02165
G1 X122.82 Y230.425 E43.05138
G1 X122.452 Y229.611 E43.0988
G1 X122.278 Y229.073 E43.12881
G1 X122.185 Y228.322 E43.16898
G1 X122.161 Y227.118 E43.23291
G1 X122.16 Y174.568 E46.02243
G1 X122.17 Y173.898 E46.058
G1 X122.24 Y173.154 E46.09767
G1 X122.44 Y172.407 E46.13872
G1 X122.706 Y171.79 E46.17438
G1 X123.132 Y171.104 E46.21725
G1 X123.677 Y170.497 E46.26055
G1 X124.23 Y170.04 E46.29863
M204 S3000
M205 X10 Y10
G0 F6000 X124.55 Y170.503
M204 S1000
M205 X8 Y8
G1 F2400 X125.235 Y170.122 E46.34024
G1 X125.71 Y169.932 E46.3674
G1 X126.328 Y169.791 E46.40105
G1 X126.905 Y169.731 E46.43184
G1 X127.563 Y169.721 E46.46677
G1 X274.455 Y169.721 E54.26427
G1 X275.164 Y169.732 E54.30191
G1 X275.961 Y169.83 E54.34453
G1 X276.877 Y170.159 E54.3962
G1 X277.457 Y170.507 E54.43211
G1 X277.966 Y170.931 E54.46727
G1 X278.323 Y171.298 E54.49445
G1 X278.619 Y171.716 E54.52164
G1 X278.938 Y172.367 E54.56012
G1 X279.113 Y172.848 E54.58729
G1 X279.264 Y173.614 E54.62874
G1 X279.279 Y174.641 E54.68326
G1 X279.279 Y227.42 E57.48493
G1 X279.267 Y228.254 E57.52921
G1 X279.219 Y228.764 E57.5564
G1 X279.093 Y229.26 E57.58357
G1 X278.741 Y230.049 E57.62943
G1 X278.484 Y230.491 E57.65657
G1 X278.161 Y230.888 E57.68374
G1 X277.67 Y231.329 E57.71877
G1 X276.983 Y231.79 E57.76269
G1 X276.391 Y232.04 E57.7968
G1 X275.661 Y232.21 E57.83659
G1 X275.063 Y232.277 E57.86853
G1 X127.61 Y232.28 E65.69581
G1 X126.892 Y232.269 E65.73392
G1 X126.141 Y232.184 E65.77404
G1 X125.497 Y231.997 E65.80964
G1 X124.813 Y231.661 E65.85009
G1 X124.383 Y231.384 E65.87725
G1 X124 Y231.044 E65.90443
G1 X123.599 Y230.568 E65.93747
G1 X123.309 Y230.147 E65.96461
G1 X122.985 Y229.439 E66.00594
G1 X122.828 Y228.952 E66.0331
G1 X122.741 Y228.253 E66.07049
G1 X122.721 Y227.118 E66.13075
G1 X122.72 Y174.576 E68.91985
G1 X122.73 Y173.906 E68.95542
G1 X122.793 Y173.254 E68.99019
G1 X122.954 Y172.629 E69.02445
G1 X123.22 Y172.012 E69.06012
G1 X123.581 Y171.441 E69.09598
G1 X124.034 Y170.929 E69.13226
G1 X124.55 Y170.503 E69.16778
M204 S3000
M205 X10 Y10
G1 F2400 E63.16778
;MESH:Stopuhr-V04.stl
G0 F6000 X126.138 Y172.586
G0 X126.649 Y173.541
G0 X127.297 Y174.312
G0 X127.329 Y174.35
M204 S1000
M205 X8 Y8
;TYPE:WALL-INNER
G1 F2400 E69.16778
G1 F2625 X127.735 Y174.027 E69.19611
G1 X128.083 Y173.85 E69.21743
G1 X127.035 Y173.849 E69.27465
G1 X126.915 Y173.886 E69.28151
G1 X126.848 Y173.997 E69.28858
G1 X126.85 Y175.067 E69.34701
G1 X127.042 Y174.706 E69.36933
G1 X127.329 Y174.35 E69.3943
M204 S3000
M205 X10 Y10
G0 F6000 X127.297 Y174.312
G0 X127.065 Y175.819
G0 X127.112 Y176.463
G0 X127.452 Y177.173
G0 X135.98 Y193.36
G0 X136.643 Y194.443
G0 X137.463 Y195.416
G0 X138.403 Y196.243
G0 X139.29 Y196.814
G0 X143.813 Y198.895
M204 S1000
M205 X8 Y8
G1 F2700 X142.578 Y198.871 E69.45987
G1 X141.351 Y198.649 E69.52606
G1 X140.575 Y198.433 E69.56882
G1 X139.643 Y198.072 E69.62187
G1 X138.817 Y197.652 E69.67106
G1 X137.81 Y196.998 E69.7348
G1 X136.779 Y196.095 E69.80755
G1 X135.86 Y195.004 E69.88328
G1 X135.121 Y193.798 E69.95836
G1 X134.649 Y192.662 E70.02366
G1 X134.374 Y191.756 E70.07392
G1 X134.157 Y190.682 E70.13208
G1 X134.097 Y189.517 E70.194
G1 X134.155 Y188.342 E70.25645
G1 X134.385 Y187.187 E70.31897
G1 X134.686 Y186.237 E70.37187
G1 X135.116 Y185.21 E70.43097
G1 X135.716 Y184.23 E70.49197
G1 X136.276 Y183.485 E70.54144
G1 X136.908 Y182.796 E70.59107
G1 X137.622 Y182.164 E70.64169
G1 X138.389 Y181.608 E70.69197
G1 X139.401 Y181.02 E70.7541
G1 X140.432 Y180.616 E70.81289
G1 X141.394 Y180.337 E70.86606
G1 X142.254 Y180.183 E70.91243
G1 X143.48 Y180.083 E70.97773
G1 X144.587 Y180.164 E71.03665
G1 X145.516 Y180.321 E71.08666
G1 X146.415 Y180.565 E71.13611
G1 X147.361 Y180.927 E71.18988
G1 X148.244 Y181.387 E71.24273
G1 X149.179 Y181.989 E71.30176
G1 X150.225 Y182.908 E71.37567
G1 X150.995 Y183.822 E71.43911
G1 X151.545 Y184.64 E71.49144
G1 X151.969 Y185.415 E71.53833
G1 X152.328 Y186.27 E71.58756
G1 X152.613 Y187.178 E71.63807
G1 X152.838 Y188.315 E71.6996
G1 X152.903 Y189.48 E71.76154
G1 X152.845 Y190.662 E71.82436
G1 X152.614 Y191.813 E71.88667
G1 X152.308 Y192.779 E71.94046
G1 X151.877 Y193.804 E71.99949
G1 X151.231 Y194.844 E72.06448
G1 X150.752 Y195.479 E72.1067
G1 X150.088 Y196.207 E72.15901
G1 X149.193 Y196.996 E72.22234
G1 X148.252 Y197.61 E72.28198
G1 X147.378 Y198.064 E72.33427
G1 X146.5 Y198.409 E72.38434
G1 X145.538 Y198.675 E72.43732
G1 X144.74 Y198.818 E72.48036
G1 X143.813 Y198.895 E72.52974
M204 S3000
M205 X10 Y10
G0 F6000 X143.771 Y198.336
M204 S1000
M205 X8 Y8
G1 F2700 X142.599 Y198.306 E72.59197
G1 X141.501 Y198.11 E72.65118
G1 X140.655 Y197.869 E72.69787
G1 X139.909 Y197.577 E72.7404
G1 X139.06 Y197.142 E72.79104
G1 X138.152 Y196.555 E72.84843
G1 X137.174 Y195.696 E72.91753
G1 X136.317 Y194.679 E72.98813
G1 X135.623 Y193.546 E73.05865
G1 X135.183 Y192.495 E73.11914
G1 X134.944 Y191.728 E73.16178
G1 X134.723 Y190.654 E73.21999
G1 X134.66 Y189.472 E73.28282
G1 X134.712 Y188.41 E73.33926
G1 X134.94 Y187.291 E73.39988
G1 X135.203 Y186.453 E73.44651
G1 X135.619 Y185.461 E73.50361
G1 X136.185 Y184.537 E73.56113
G1 X136.75 Y183.791 E73.6108
G1 X137.285 Y183.212 E73.65265
G1 X137.945 Y182.624 E73.69957
G1 X138.661 Y182.102 E73.74661
G1 X139.648 Y181.525 E73.8073
G1 X140.637 Y181.137 E73.86369
G1 X141.481 Y180.895 E73.9103
G1 X142.35 Y180.735 E73.95721
G1 X143.487 Y180.648 E74.01774
G1 X144.63 Y180.733 E74.07858
G1 X145.498 Y180.89 E74.1254
G1 X146.265 Y181.104 E74.16767
G1 X147.091 Y181.423 E74.21468
G1 X147.869 Y181.816 E74.26094
G1 X148.838 Y182.435 E74.32198
G1 X149.826 Y183.304 E74.39183
G1 X150.517 Y184.124 E74.44875
G1 X151.054 Y184.91 E74.49928
G1 X151.463 Y185.655 E74.5444
G1 X151.802 Y186.462 E74.59086
G1 X152.067 Y187.312 E74.63812
G1 X152.283 Y188.386 E74.69628
G1 X152.34 Y189.486 E74.75475
G1 X152.288 Y190.59 E74.81341
G1 X152.06 Y191.709 E74.87403
G1 X151.792 Y192.562 E74.9215
G1 X151.381 Y193.54 E74.97781
G1 X150.784 Y194.506 E75.03809
G1 X150.252 Y195.205 E75.08472
G1 X149.692 Y195.811 E75.12852
G1 X148.853 Y196.551 E75.18791
G1 X147.881 Y197.178 E75.24931
G1 X147.149 Y197.553 E75.29297
G1 X146.284 Y197.889 E75.34222
G1 X145.513 Y198.107 E75.38476
G1 X144.646 Y198.266 E75.43155
G1 X143.771 Y198.336 E75.47814
M204 S3000
M205 X10 Y10
G0 F6000 X143.774 Y198.396
G0 X150.54 Y207.153
G0 X151.038 Y207.882
G0 X151.461 Y208.654
G0 X151.804 Y209.467
G0 X152.065 Y210.31
G0 X152.284 Y211.39
G0 X152.341 Y212.489
G0 X152.286 Y213.589
G0 X152.07 Y214.671
G0 X151.808 Y215.523
G0 X151.38 Y216.538
G0 X150.81 Y217.472
G0 X150.278 Y218.173
G0 X149.68 Y218.82
G0 X148.851 Y219.554
G0 X147.921 Y220.156
G0 X143.813 Y221.895
M204 S1000
M205 X8 Y8
G1 F2700 X142.575 Y221.871 E75.54387
G1 X141.486 Y221.68 E75.60256
G1 X140.585 Y221.435 E75.65213
G1 X139.639 Y221.073 E75.70589
G1 X138.876 Y220.682 E75.75141
G1 X137.82 Y220.011 E75.81782
G1 X136.78 Y219.096 E75.89135
G1 X135.86 Y217.998 E75.96739
G1 X135.122 Y216.8 E76.04208
G1 X134.649 Y215.662 E76.1075
G1 X134.374 Y214.756 E76.15776
G1 X134.157 Y213.682 E76.21593
G1 X134.097 Y212.517 E76.27785
G1 X134.155 Y211.342 E76.3403
G1 X134.385 Y210.187 E76.40281
G1 X134.686 Y209.237 E76.45571
G1 X135.117 Y208.207 E76.51498
G1 X135.77 Y207.154 E76.58076
G1 X136.339 Y206.411 E76.63043
G1 X136.874 Y205.832 E76.67228
G1 X137.611 Y205.173 E76.72476
G1 X138.388 Y204.608 E76.77576
G1 X139.404 Y204.018 E76.83813
G1 X140.563 Y203.571 E76.90407
G1 X141.462 Y203.325 E76.95354
G1 X142.318 Y203.171 E76.99971
G1 X143.47 Y203.084 E77.06104
G1 X144.61 Y203.165 E77.1217
G1 X145.649 Y203.351 E77.17774
G1 X146.488 Y203.587 E77.224
G1 X147.364 Y203.931 E77.27396
G1 X148.189 Y204.353 E77.32315
G1 X149.184 Y204.997 E77.38606
G1 X150.225 Y205.91 E77.45957
G1 X150.994 Y206.821 E77.52285
G1 X151.545 Y207.64 E77.57525
G1 X151.966 Y208.405 E77.6216
G1 X152.35 Y209.335 E77.67501
G1 X152.626 Y210.244 E77.72544
G1 X152.843 Y211.316 E77.7835
G1 X152.903 Y212.485 E77.84563
G1 X152.841 Y213.662 E77.9082
G1 X152.614 Y214.806 E77.97011
G1 X152.335 Y215.715 E78.02058
G1 X151.884 Y216.78 E78.08198
G1 X151.307 Y217.732 E78.14107
G1 X150.708 Y218.538 E78.19438
G1 X150.024 Y219.267 E78.24744
G1 X149.192 Y220.002 E78.30637
G1 X148.258 Y220.606 E78.36542
G1 X147.382 Y221.064 E78.41789
G1 X146.569 Y221.384 E78.46427
G1 X145.671 Y221.644 E78.51389
G1 X144.746 Y221.817 E78.56385
G1 X143.813 Y221.895 E78.61355
M204 S3000
M205 X10 Y10
G0 F6000 X143.77 Y221.336
M204 S1000
M205 X8 Y8
G1 F2700 X142.627 Y221.312 E78.67423
G1 X141.502 Y221.11 E78.73491
G1 X140.735 Y220.896 E78.77718
G1 X139.909 Y220.577 E78.82418
G1 X139.06 Y220.142 E78.87482
G1 X138.193 Y219.584 E78.92955
G1 X137.159 Y218.677 E79.00256
G1 X136.315 Y217.675 E79.07211
G1 X135.623 Y216.546 E79.1424
G1 X135.183 Y215.495 E79.20288
G1 X134.944 Y214.728 E79.24553
G1 X134.723 Y213.654 E79.30373
G1 X134.66 Y212.472 E79.36657
G1 X134.712 Y211.41 E79.42301
G1 X134.94 Y210.291 E79.48363
G1 X135.203 Y209.453 E79.53025
G1 X135.619 Y208.46 E79.5874
G1 X136.217 Y207.491 E79.64785
G1 X136.697 Y206.855 E79.69014
G1 X137.346 Y206.153 E79.74089
G1 X137.967 Y205.605 E79.78486
G1 X138.661 Y205.102 E79.83036
G1 X139.648 Y204.525 E79.89104
G1 X140.677 Y204.123 E79.94969
G1 X141.561 Y203.876 E79.99841
G1 X142.401 Y203.727 E80.0437
G1 X143.519 Y203.648 E80.10319
G1 X144.56 Y203.723 E80.15859
G1 X145.499 Y203.89 E80.20922
G1 X146.27 Y204.106 E80.25172
G1 X147.167 Y204.457 E80.30286
G1 X147.941 Y204.858 E80.34913
G1 X148.844 Y205.442 E80.40621
G1 X149.803 Y206.284 E80.47396
G1 X150.517 Y207.124 E80.53248
G1 X151.054 Y207.91 E80.58301
G1 X151.478 Y208.689 E80.63009
G1 X151.788 Y209.426 E80.67253
G1 X152.077 Y210.355 E80.72418
G1 X152.285 Y211.383 E80.77985
G1 X152.34 Y212.486 E80.83848
G1 X152.285 Y213.593 E80.89731
G1 X152.06 Y214.709 E80.95775
G1 X151.792 Y215.562 E81.00521
G1 X151.395 Y216.506 E81.05957
G1 X150.784 Y217.506 E81.12178
G1 X150.252 Y218.205 E81.16841
G1 X149.654 Y218.847 E81.21498
G1 X148.853 Y219.554 E81.27169
G1 X147.954 Y220.136 E81.32854
G1 X147.188 Y220.534 E81.37437
G1 X146.285 Y220.889 E81.42587
G1 X145.439 Y221.123 E81.47247
G1 X144.65 Y221.265 E81.51502
G1 X143.77 Y221.336 E81.56189
M204 S3000
M205 X10 Y10
G0 F6000 X143.773 Y221.396
G0 X129.619 Y227.842
G0 X127.347 Y227.736
G0 X127.385 Y227.703
M204 S1000
M205 X8 Y8
G1 F2620.5 X127.182 Y227.485 E81.57818
G1 X126.849 Y226.936 E81.6133
G1 X126.849 Y228.008 E81.67193
G1 X126.918 Y228.104 E81.6784
G1 X127.036 Y228.152 E81.68536
G1 X128.074 Y228.151 E81.74214
G1 X127.753 Y227.988 E81.76183
G1 X127.385 Y227.703 E81.78729
M204 S3000
M205 X10 Y10
G0 F6000 X127.347 Y227.736
G0 X129.042 Y227.944
G0 X238.084 Y214.773
M204 S1000
M205 X8 Y8
G1 F2700 X237.603 Y214.9 E81.81369
G1 X164.397 Y214.9 E85.6997
G1 X164.053 Y214.828 E85.71836
G1 X163.788 Y214.707 E85.73382
G1 X163.533 Y214.514 E85.7508
G1 X163.236 Y214.103 E85.77771
G1 X163.101 Y213.697 E85.80043
G1 X163.101 Y188.426 E87.14189
G1 X163.183 Y188.024 E87.16367
G1 X163.313 Y187.756 E87.17948
G1 X163.67 Y187.371 E87.20735
G1 X163.915 Y187.227 E87.22244
G1 X164.322 Y187.1 E87.24507
G1 X237.603 Y187.1 E91.13506
G1 X238.084 Y187.227 E91.16147
G1 X238.329 Y187.371 E91.17655
G1 X238.614 Y187.651 E91.19776
G1 X238.765 Y187.898 E91.21313
G1 X238.899 Y188.304 E91.23582
G1 X238.899 Y213.703 E92.58408
G1 X238.762 Y214.109 E92.60683
G1 X238.609 Y214.356 E92.62225
G1 X238.329 Y214.629 E92.64301
G1 X238.084 Y214.773 E92.6581
M204 S3000
M205 X10 Y10
G0 F6000 X163.939 Y214.4
G0 X163.939 Y214.127
M204 S1000
M205 X8 Y8
G1 F2700 X163.741 Y213.862 E92.67566
G1 X163.66 Y213.619 E92.68925
G1 X163.661 Y188.455 E94.02504
G1 X163.709 Y188.214 E94.03808
G1 X163.788 Y188.053 E94.0476
G1 X164.002 Y187.823 E94.06428
G1 X164.231 Y187.703 E94.078
G1 X164.408 Y187.664 E94.08762
G1 X237.592 Y187.664 E97.97246
G1 X237.768 Y187.703 E97.98203
G1 X238.061 Y187.873 E98.00001
G1 X238.259 Y188.138 E98.01757
G1 X238.34 Y188.381 E98.03117
G1 X238.339 Y213.545 E99.36696
G1 X238.291 Y213.786 E99.38
G1 X238.099 Y214.09 E99.39909
G1 X237.851 Y214.264 E99.41517
G1 X237.592 Y214.336 E99.42944
G1 X164.408 Y214.336 E103.31428
G1 X164.232 Y214.297 E103.32385
G1 X163.939 Y214.127 E103.34183
M204 S3000
M205 X10 Y10
G0 F6000 X163.939 Y214.4
G0 X258.813 Y221.895
M204 S1000
M205 X8 Y8
G1 F2700 X257.575 Y221.871 E103.40756
G1 X256.486 Y221.68 E103.46625
G1 X255.585 Y221.435 E103.51581
G1 X254.639 Y221.073 E103.56958
G1 X253.876 Y220.682 E103.61509
G1 X252.822 Y220.013 E103.68136
G1 X251.778 Y219.094 E103.75519
G1 X250.858 Y218.002 E103.83099
G1 X250.118 Y216.784 E103.90664
G1 X249.671 Y215.728 E103.96751
G1 X249.39 Y214.827 E104.01761
G1 X249.157 Y213.685 E104.07948
G1 X249.097 Y212.517 E104.14156
G1 X249.155 Y211.335 E104.20438
G1 X249.386 Y210.187 E104.26654
G1 X249.686 Y209.237 E104.31943
G1 X250.121 Y208.199 E104.37917
