;FLAVOR:Marlin
;TIME:14688
;Filament used: 17.9608m
;Layer height: 0.2
;MINX:198.559
;MINY:39.184
;MINZ:0.2
;MAXX:364.357
;MAXY:105.984
;MAXZ:51
;TARGET_MACHINE.NAME:Anycubic Kobra Max
;Generated with Cura_SteamEngine 5.5.0
M140 S60
M105
M190 S60
M104 S195
M105
M109 S195
M82 ;absolute extrusion mode
G28 ;Home
G1 Z15.0 F1200 ;Move the platform down 15mm
;Prime the extruder
G92 E0
G1 F200 E3
G92 E0
G92 E0
G92 E0
G1 F2400 E-6
;LAYER_COUNT:255
;LAYER:0
M107
M204 S3000
M205 X10 Y10
G1 F1200 Z0.275
G0 F6000 X198.66 Y43.628 Z0.275
M204 S1000
M205 X8 Y8
;TYPE:SKIRT
G1 F1200 Z0.2
G1 F2400 E0
G1 X198.822 Y42.99 E0.03494
G1 X199.085 Y42.297 E0.07429
G1 X199.449 Y41.644 E0.11397
G1 X199.8 Y41.146 E0.14632
G1 X200.474 Y40.486 E0.19639
G1 X201.077 Y40.032 E0.23646
G1 X201.708 Y39.693 E0.27448
G1 X202.389 Y39.416 E0.31351
G1 X203.315 Y39.202 E0.36396
G1 X204.356 Y39.184 E0.41923
G1 X358.476 Y39.185 E8.6004
G1 X359.335 Y39.201 E8.64601
G1 X359.931 Y39.264 E8.67782
G1 X360.594 Y39.434 E8.71416
G1 X361.392 Y39.775 E8.76022
G1 X361.927 Y40.071 E8.79268
G1 X362.655 Y40.653 E8.84216
G1 X363.254 Y41.321 E8.88978
G1 X363.729 Y42.063 E8.93655
G1 X364.028 Y42.759 E8.97676
G1 X364.244 Y43.571 E9.02136
G1 X364.344 Y44.423 E9.0669
G1 X364.355 Y45.205 E9.10842
G1 X364.357 Y100.022 E12.01828
G1 X364.339 Y100.874 E12.06351
G1 X364.227 Y101.781 E12.11203
G1 X363.873 Y102.825 E12.17054
G1 X363.28 Y103.823 E12.23217
G1 X362.701 Y104.478 E12.27857
G1 X361.929 Y105.08 E12.33054
G1 X361.415 Y105.397 E12.3626
G1 X360.696 Y105.694 E12.40389
G1 X359.612 Y105.966 E12.46322
G1 X358.349 Y105.983 E12.53027
G1 X204.457 Y105.984 E20.69934
G1 X203.663 Y105.97 E20.7415
G1 X203.068 Y105.914 E20.77322
G1 X202.086 Y105.647 E20.82724
G1 X201.256 Y105.256 E20.87595
G1 X200.539 Y104.741 E20.92281
G1 X200.043 Y104.288 E20.95846
G1 X199.469 Y103.538 E21.0086
G1 X199.145 Y103.013 E21.04135
G1 X198.779 Y102.089 E21.0941
G1 X198.583 Y101.109 E21.14716
G1 X198.559 Y99.916 E21.2105
G1 X198.56 Y45.153 E24.11749
G1 X198.582 Y44.297 E24.16294
G1 X198.66 Y43.628 E24.1987
M204 S3000
M205 X10 Y10
G0 F6000 X199.203 Y43.766
M204 S1000
M205 X8 Y8
G1 F2400 X199.365 Y43.128 E24.23364
G1 X199.575 Y42.568 E24.26539
G1 X199.907 Y41.967 E24.30184
G1 X200.23 Y41.509 E24.33158
G1 X200.866 Y40.886 E24.37884
G1 X201.344 Y40.524 E24.41067
G1 X201.919 Y40.212 E24.4454
G1 X202.558 Y39.952 E24.48202
G1 X203.385 Y39.761 E24.52708
G1 X204.356 Y39.744 E24.57863
G1 X358.467 Y39.745 E32.75933
G1 X359.276 Y39.758 E32.80228
G1 X359.872 Y39.821 E32.83409
G1 X360.45 Y39.975 E32.86585
G1 X361.121 Y40.265 E32.90465
G1 X361.614 Y40.538 E32.93456
G1 X362.269 Y41.061 E32.97906
G1 X362.806 Y41.66 E33.02176
G1 X363.232 Y42.326 E33.06373
G1 X363.513 Y42.98 E33.10151
G1 X363.702 Y43.711 E33.14159
G1 X363.784 Y44.431 E33.18006
G1 X363.795 Y45.205 E33.22115
G1 X363.797 Y100.012 E36.13048
G1 X363.783 Y100.806 E36.17263
G1 X363.678 Y101.658 E36.2182
G1 X363.362 Y102.59 E36.27044
G1 X362.826 Y103.492 E36.32614
G1 X362.316 Y104.068 E36.36698
G1 X361.635 Y104.603 E36.41295
G1 X361.16 Y104.896 E36.44257
G1 X360.482 Y105.176 E36.48151
G1 X359.539 Y105.407 E36.53305
G1 X358.349 Y105.423 E36.59623
G1 X204.466 Y105.424 E44.76482
G1 X203.716 Y105.412 E44.80464
G1 X203.164 Y105.36 E44.83407
G1 X202.285 Y105.121 E44.88243
G1 X201.54 Y104.77 E44.92614
G1 X200.866 Y104.286 E44.97019
G1 X200.457 Y103.908 E44.99975
G1 X199.945 Y103.244 E45.04426
G1 X199.649 Y102.765 E45.07415
G1 X199.318 Y101.928 E45.12193
G1 X199.142 Y101.049 E45.16952
G1 X199.119 Y99.916 E45.22967
G1 X199.12 Y45.166 E48.13598
G1 X199.139 Y44.357 E48.17893
G1 X199.203 Y43.766 E48.21049
M204 S3000
M205 X10 Y10
G0 F6000 X199.746 Y43.902
M204 S1000
M205 X8 Y8
G1 F2400 X199.892 Y43.318 E48.24244
G1 X200.066 Y42.837 E48.2696
G1 X200.365 Y42.29 E48.30269
G1 X200.66 Y41.872 E48.32985
G1 X201.209 Y41.329 E48.37084
G1 X201.614 Y41.015 E48.39804
G1 X202.13 Y40.731 E48.4293
G1 X202.727 Y40.488 E48.46352
G1 X203.455 Y40.32 E48.50318
G1 X204.356 Y40.304 E48.55101
G1 X358.459 Y40.305 E56.73129
G1 X359.224 Y40.316 E56.7719
G1 X359.734 Y40.364 E56.7991
G1 X360.23 Y40.49 E56.82626
G1 X360.85 Y40.755 E56.86205
G1 X361.298 Y41.003 E56.88924
G1 X361.885 Y41.472 E56.92912
G1 X362.358 Y41.999 E56.96671
G1 X362.735 Y42.589 E57.00388
G1 X362.998 Y43.201 E57.03924
G1 X363.146 Y43.777 E57.07081
G1 X363.224 Y44.439 E57.10619
G1 X363.235 Y45.205 E57.14686
G1 X363.237 Y100.004 E60.05576
G1 X363.227 Y100.738 E60.09473
G1 X363.129 Y101.535 E60.13735
G1 X362.851 Y102.355 E60.18331
G1 X362.372 Y103.16 E60.23304
G1 X361.932 Y103.657 E60.26828
G1 X361.341 Y104.126 E60.30833
G1 X360.905 Y104.395 E60.33552
G1 X360.268 Y104.658 E60.3721
G1 X359.468 Y104.848 E60.41575
G1 X358.349 Y104.863 E60.47516
G1 X204.474 Y104.864 E68.64333
G1 X203.769 Y104.854 E68.68076
G1 X203.26 Y104.806 E68.7079
G1 X202.484 Y104.595 E68.75058
G1 X201.824 Y104.284 E68.78931
G1 X201.246 Y103.874 E68.82693
G1 X200.87 Y103.527 E68.85409
G1 X200.421 Y102.949 E68.89294
G1 X200.152 Y102.514 E68.92009
G1 X199.857 Y101.767 E68.96273
G1 X199.701 Y100.989 E69.00485
G1 X199.679 Y99.916 E69.06182
G1 X199.68 Y45.178 E71.96748
G1 X199.696 Y44.412 E72.00815
G1 X199.746 Y43.902 E72.03536
M204 S3000
M205 X10 Y10
G1 F2400 E66.03536
;MESH:Gehaeuse-V01.stl
G0 F6000 X203.044 Y43.183
G0 X203.893 Y44.004
G0 X358.555 Y100.183
M204 S1000
M205 X8 Y8
;TYPE:WALL-INNER
G1 F2400 E72.03536
G1 F2700 X358.555 Y44.985 E74.96544
G1 X204.363 Y44.985 E83.15044
G1 X204.365 Y100.183 E86.08053
G1 X358.555 Y100.183 E94.26542
M204 S3000
M205 X10 Y10
G0 F6000 X358.951 Y100.742
M204 S1000
M205 X8 Y8
G1 F2700 X359.061 Y100.696 E94.27175
G1 X359.115 Y100.548 E94.28012
G1 X359.115 Y44.57 E97.25161
G1 X358.992 Y44.426 E97.26166
G1 X203.981 Y44.425 E105.49013
G1 X203.839 Y44.492 E105.49847
G1 X203.802 Y44.638 E105.50646
G1 X203.805 Y100.57 E108.47551
G1 X203.867 Y100.703 E108.4833
G1 X203.967 Y100.743 E108.48902
G1 X358.951 Y100.742 E116.71606
M204 S3000
M205 X10 Y10
G0 F6000 X358.93 Y100.687
G0 X203.863 Y100.561
G0 X203.245 Y100.646
M204 S1000
M205 X8 Y8
;TYPE:WALL-OUTER
G1 F2700 X203.312 Y100.886 E116.72929
G1 X203.46 Y101.098 E116.74301
G1 X203.58 Y101.193 E116.75114
G1 X203.861 Y101.303 E116.76716
G1 X359.056 Y101.302 E125.0054
G1 X359.335 Y101.194 E125.02128
G1 X359.566 Y100.96 E125.03874
G1 X359.675 Y100.64 E125.05668
G1 X359.675 Y44.514 E128.03603
G1 X359.538 Y44.163 E128.05603
G1 X359.323 Y43.966 E128.07151
G1 X358.993 Y43.866 E128.08981
G1 X203.869 Y43.865 E136.32429
G1 X203.555 Y43.995 E136.34233
G1 X203.318 Y44.265 E136.3614
G1 X203.242 Y44.568 E136.37798
G1 X203.245 Y100.646 E139.35478
M204 S3000
M205 X10 Y10
G0 F6000 X203.298 Y100.838
G0 X203.879 Y100.623
G0 X358.015 Y99.643
M204 S1000
M205 X8 Y8
;TYPE:SKIN
G1 F2700 X204.905 Y99.643 E147.48234
G1 X204.904 Y45.525 E150.3551
G1 X358.015 Y45.525 E158.48272
G1 X358.015 Y99.643 E161.35547
M204 S3000
M205 X10 Y10
G0 F6000 X357.734 Y46.494
M204 S1000
M205 X8 Y8
G1 F2700 X357.045 Y45.805 E161.4072
M204 S3000
M205 X10 Y10
G0 F6000 X356.253 Y45.805
M204 S1000
M205 X8 Y8
G1 F2700 X357.734 Y47.286 E161.51838
M204 S3000
M205 X10 Y10
G0 F6000 X357.734 Y48.078
M204 S1000
M205 X8 Y8
G1 F2700 X355.461 Y45.805 E161.68901
M204 S3000
M205 X10 Y10
G0 F6000 X354.669 Y45.805
M204 S1000
M205 X8 Y8
G1 F2700 X357.734 Y48.87 E161.9191
M204 S3000
M205 X10 Y10
G0 F6000 X357.734 Y49.662
M204 S1000
M205 X8 Y8
G1 F2700 X353.877 Y45.805 E162.20865
M204 S3000
M205 X10 Y10
G0 F6000 X353.085 Y45.805
M204 S1000
M205 X8 Y8
G1 F2700 X357.734 Y50.454 E162.55766
M204 S3000
M205 X10 Y10
G0 F6000 X357.734 Y51.246
M204 S1000
M205 X8 Y8
G1 F2700 X352.294 Y45.805 E162.96608
M204 S3000
M205 X10 Y10
G0 F6000 X351.502 Y45.805
M204 S1000
M205 X8 Y8
G1 F2700 X357.734 Y52.038 E163.43396
M204 S3000
M205 X10 Y10
G0 F6000 X357.734 Y52.83
M204 S1000
M205 X8 Y8
G1 F2700 X350.71 Y45.805 E163.9613
M204 S3000
M205 X10 Y10
G0 F6000 X349.918 Y45.805
M204 S1000
M205 X8 Y8
G1 F2700 X357.734 Y53.622 E164.54809
M204 S3000
M205 X10 Y10
G0 F6000 X357.734 Y54.413
M204 S1000
M205 X8 Y8
G1 F2700 X349.126 Y45.805 E165.1943
M204 S3000
M205 X10 Y10
G0 F6000 X348.334 Y45.805
M204 S1000
M205 X8 Y8
G1 F2700 X357.734 Y55.205 E165.89997
M204 S3000
M205 X10 Y10
G0 F6000 X357.734 Y55.997
M204 S1000
M205 X8 Y8
G1 F2700 X347.542 Y45.805 E166.66509
M204 S3000
M205 X10 Y10
G0 F6000 X346.75 Y45.805
M204 S1000
M205 X8 Y8
G1 F2700 X357.734 Y56.789 E167.48967
M204 S3000
M205 X10 Y10
G0 F6000 X357.734 Y57.581
M204 S1000
M205 X8 Y8
G1 F2700 X345.958 Y45.805 E168.3737
M204 S3000
M205 X10 Y10
G0 F6000 X345.166 Y45.805
M204 S1000
M205 X8 Y8
G1 F2700 X357.734 Y58.373 E169.3172
M204 S3000
M205 X10 Y10
G0 F6000 X357.734 Y59.165
M204 S1000
M205 X8 Y8
G1 F2700 X344.374 Y45.805 E170.32014
M204 S3000
M205 X10 Y10
G0 F6000 X343.582 Y45.805
M204 S1000
M205 X8 Y8
G1 F2700 X357.734 Y59.957 E171.38255
M204 S3000
M205 X10 Y10
G0 F6000 X357.734 Y60.749
M204 S1000
M205 X8 Y8
G1 F2700 X342.79 Y45.805 E172.50441
M204 S3000
M205 X10 Y10
G0 F6000 X341.998 Y45.805
M204 S1000
M205 X8 Y8
G1 F2700 X357.734 Y61.541 E173.68572
M204 S3000
M205 X10 Y10
G0 F6000 X357.734 Y62.333
M204 S1000
M205 X8 Y8
G1 F2700 X341.206 Y45.805 E174.9265
M204 S3000
M205 X10 Y10
G0 F6000 X340.414 Y45.805
M204 S1000
M205 X8 Y8
G1 F2700 X357.734 Y63.125 E176.22673
M204 S3000
M205 X10 Y10
G0 F6000 X357.734 Y63.917
M204 S1000
M205 X8 Y8
G1 F2700 X339.622 Y45.805 E177.58641
M204 S3000
M205 X10 Y10
G0 F6000 X338.83 Y45.805
M204 S1000
M205 X8 Y8
G1 F2700 X357.734 Y64.709 E179.00555
M204 S3000
M205 X10 Y10
G0 F6000 X357.734 Y65.501
M204 S1000
M205 X8 Y8
G1 F2700 X338.038 Y45.805 E180.48415
M204 S3000
M205 X10 Y10
G0 F6000 X337.246 Y45.805
M204 S1000
M205 X8 Y8
G1 F2700 X357.734 Y66.293 E182.0222
M204 S3000
M205 X10 Y10
G0 F6000 X357.734 Y67.085
M204 S1000
M205 X8 Y8
G1 F2700 X336.454 Y45.805 E183.61971
M204 S3000
M205 X10 Y10
G0 F6000 X335.662 Y45.805
M204 S1000
M205 X8 Y8
G1 F2700 X357.734 Y67.877 E185.27668
M204 S3000
M205 X10 Y10
G0 F6000 X357.734 Y68.669
M204 S1000
M205 X8 Y8
G1 F2700 X334.87 Y45.805 E186.9931
M204 S3000
M205 X10 Y10
G0 F6000 X334.078 Y45.805
M204 S1000
M205 X8 Y8
G1 F2700 X357.734 Y69.461 E188.76898
M204 S3000
M205 X10 Y10
G0 F6000 X357.734 Y70.253
M204 S1000
M205 X8 Y8
G1 F2700 X333.287 Y45.805 E190.60428
M204 S3000
M205 X10 Y10
G0 F6000 X332.495 Y45.805
M204 S1000
M205 X8 Y8
G1 F2700 X357.734 Y71.045 E192.49903
M204 S3000
M205 X10 Y10
G0 F6000 X357.734 Y71.837
M204 S1000
M205 X8 Y8
G1 F2700 X331.703 Y45.805 E194.45324
M204 S3000
M205 X10 Y10
G0 F6000 X330.911 Y45.805
M204 S1000
M205 X8 Y8
G1 F2700 X357.734 Y72.629 E196.4669
M204 S3000
M205 X10 Y10
G0 F6000 X357.734 Y73.421
M204 S1000
M205 X8 Y8
G1 F2700 X330.119 Y45.805 E198.54003
M204 S3000
M205 X10 Y10
G0 F6000 X329.327 Y45.805
M204 S1000
M205 X8 Y8
G1 F2700 X357.734 Y74.212 E200.67257
M204 S3000
M205 X10 Y10
G0 F6000 X357.734 Y75.004
M204 S1000
M205 X8 Y8
G1 F2700 X328.535 Y45.805 E202.86456
M204 S3000
M205 X10 Y10
G0 F6000 X327.743 Y45.805
M204 S1000
M205 X8 Y8
G1 F2700 X357.734 Y75.796 E205.11602
M204 S3000
M205 X10 Y10
G0 F6000 X357.734 Y76.588
M204 S1000
M205 X8 Y8
G1 F2700 X326.951 Y45.805 E207.42692
M204 S3000
M205 X10 Y10
G0 F6000 X326.159 Y45.805
M204 S1000
M205 X8 Y8
G1 F2700 X357.734 Y77.38 E209.79729
M204 S3000
M205 X10 Y10
G0 F6000 X357.734 Y78.172
M204 S1000
M205 X8 Y8
G1 F2700 X325.367 Y45.805 E212.22711
M204 S3000
M205 X10 Y10
G0 F6000 X324.575 Y45.805
M204 S1000
M205 X8 Y8
G1 F2700 X357.734 Y78.964 E214.71639
M204 S3000
M205 X10 Y10
G0 F6000 X357.734 Y79.756
M204 S1000
M205 X8 Y8
G1 F2700 X323.783 Y45.805 E217.26512
M204 S3000
M205 X10 Y10
G0 F6000 X322.991 Y45.805
M204 S1000
M205 X8 Y8
G1 F2700 X357.734 Y80.548 E219.87331
M204 S3000
M205 X10 Y10
G0 F6000 X357.734 Y81.34
M204 S1000
M205 X8 Y8
G1 F2700 X322.199 Y45.805 E222.54096
M204 S3000
M205 X10 Y10
G0 F6000 X321.407 Y45.805
M204 S1000
M205 X8 Y8
G1 F2700 X357.734 Y82.132 E225.26806
M204 S3000
M205 X10 Y10
G0 F6000 X357.734 Y82.924
M204 S1000
M205 X8 Y8
G1 F2700 X320.615 Y45.805 E228.05462
M204 S3000
M205 X10 Y10
G0 F6000 X319.823 Y45.805
M204 S1000
M205 X8 Y8
G1 F2700 X357.734 Y83.716 E230.90063
M204 S3000
M205 X10 Y10
G0 F6000 X357.734 Y84.508
M204 S1000
M205 X8 Y8
G1 F2700 X319.031 Y45.805 E233.8061
M204 S3000
M205 X10 Y10
G0 F6000 X318.239 Y45.805
M204 S1000
M205 X8 Y8
G1 F2700 X357.734 Y85.3 E236.77103
M204 S3000
M205 X10 Y10
G0 F6000 X357.734 Y86.092
M204 S1000
M205 X8 Y8
G1 F2700 X317.447 Y45.805 E239.79541
M204 S3000
M205 X10 Y10
G0 F6000 X316.655 Y45.805
M204 S1000
M205 X8 Y8
G1 F2700 X357.734 Y86.884 E242.87925
M204 S3000
M205 X10 Y10
G0 F6000 X357.734 Y87.676
M204 S1000
M205 X8 Y8
G1 F2700 X315.863 Y45.805 E246.02255
M204 S3000
M205 X10 Y10
G0 F6000 X315.071 Y45.805
M204 S1000
M205 X8 Y8
G1 F2700 X357.734 Y88.468 E249.2253
M204 S3000
M205 X10 Y10
G0 F6000 X357.734 Y89.26
M204 S1000
M205 X8 Y8
G1 F2700 X314.279 Y45.805 E252.48751
M204 S3000
M205 X10 Y10
G0 F6000 X313.488 Y45.805
M204 S1000
M205 X8 Y8
G1 F2700 X357.734 Y90.052 E255.80914
M204 S3000
M205 X10 Y10
G0 F6000 X357.734 Y90.844
M204 S1000
M205 X8 Y8
G1 F2700 X312.696 Y45.805 E259.19022
M204 S3000
M205 X10 Y10
G0 F6000 X311.904 Y45.805
M204 S1000
M205 X8 Y8
G1 F2700 X357.734 Y91.636 E262.63076
M204 S3000
M205 X10 Y10
G0 F6000 X357.734 Y92.428
M204 S1000
M205 X8 Y8
G1 F2700 X311.112 Y45.805 E266.13075
M204 S3000
M205 X10 Y10
G0 F6000 X310.32 Y45.805
M204 S1000
M205 X8 Y8
G1 F2700 X357.734 Y93.22 E269.6902
M204 S3000
M205 X10 Y10
G0 F6000 X357.734 Y94.011
M204 S1000
M205 X8 Y8
G1 F2700 X309.528 Y45.805 E273.30907
M204 S3000
M205 X10 Y10
G0 F6000 X308.736 Y45.805
M204 S1000
M205 X8 Y8
G1 F2700 X357.734 Y94.803 E276.9874
M204 S3000
M205 X10 Y10
G0 F6000 X357.734 Y95.595
M204 S1000
M205 X8 Y8
G1 F2700 X307.944 Y45.805 E280.72518
M204 S3000
M205 X10 Y10
G0 F6000 X307.152 Y45.805
M204 S1000
M205 X8 Y8
G1 F2700 X357.734 Y96.387 E284.52242
M204 S3000
M205 X10 Y10
G0 F6000 X357.734 Y97.179
M204 S1000
M205 X8 Y8
G1 F2700 X306.36 Y45.805 E288.37912
M204 S3000
M205 X10 Y10
G0 F6000 X305.568 Y45.805
M204 S1000
M205 X8 Y8
G1 F2700 X357.734 Y97.971 E292.29527
M204 S3000
M205 X10 Y10
G0 F6000 X357.734 Y98.763
M204 S1000
M205 X8 Y8
G1 F2700 X304.776 Y45.805 E296.27087
M204 S3000
M205 X10 Y10
G0 F6000 X303.984 Y45.805
M204 S1000
M205 X8 Y8
G1 F2700 X357.541 Y99.362 E300.29145
M204 S3000
M205 X10 Y10
G0 F6000 X356.749 Y99.362
M204 S1000
M205 X8 Y8
G1 F2700 X303.192 Y45.805 E304.31202
M204 S3000
M205 X10 Y10
G0 F6000 X302.4 Y45.805
M204 S1000
M205 X8 Y8
G1 F2700 X355.957 Y99.362 E308.3326
M204 S3000
M205 X10 Y10
G0 F6000 X355.165 Y99.362
M204 S1000
M205 X8 Y8
G1 F2700 X301.608 Y45.805 E312.35317
M204 S3000
M205 X10 Y10
G0 F6000 X300.816 Y45.805
M204 S1000
M205 X8 Y8
G1 F2700 X354.373 Y99.362 E316.37375
M204 S3000
M205 X10 Y10
G0 F6000 X353.581 Y99.362
M204 S1000
M205 X8 Y8
G1 F2700 X300.024 Y45.805 E320.39432
M204 S3000
M205 X10 Y10
G0 F6000 X299.232 Y45.805
M204 S1000
M205 X8 Y8
G1 F2700 X352.789 Y99.362 E324.4149
M204 S3000
M205 X10 Y10
G0 F6000 X351.997 Y99.362
M204 S1000
M205 X8 Y8
G1 F2700 X298.44 Y45.805 E328.43547
M204 S3000
M205 X10 Y10
G0 F6000 X297.648 Y45.805
M204 S1000
M205 X8 Y8
G1 F2700 X351.205 Y99.362 E332.45605
M204 S3000
M205 X10 Y10
G0 F6000 X350.413 Y99.362
M204 S1000
M205 X8 Y8
G1 F2700 X296.856 Y45.805 E336.47662
M204 S3000
M205 X10 Y10
G0 F6000 X296.064 Y45.805
M204 S1000
M205 X8 Y8
G1 F2700 X349.621 Y99.362 E340.4972
M204 S3000
M205 X10 Y10
G0 F6000 X348.829 Y99.362
M204 S1000
M205 X8 Y8
G1 F2700 X295.272 Y45.805 E344.51777
M204 S3000
M205 X10 Y10
G0 F6000 X294.48 Y45.805
M204 S1000
M205 X8 Y8
G1 F2700 X348.037 Y99.362 E348.53835
M204 S3000
M205 X10 Y10
G0 F6000 X347.245 Y99.362
M204 S1000
M205 X8 Y8
G1 F2700 X293.689 Y45.805 E352.55888
M204 S3000
M205 X10 Y10
G0 F6000 X292.897 Y45.805
M204 S1000
M205 X8 Y8
G1 F2700 X346.454 Y99.362 E356.57946
M204 S3000
M205 X10 Y10
G0 F6000 X345.662 Y99.362
M204 S1000
M205 X8 Y8
G1 F2700 X292.105 Y45.805 E360.60003
M204 S3000
M205 X10 Y10
G0 F6000 X291.313 Y45.805
M204 S1000
M205 X8 Y8
G1 F2700 X344.87 Y99.362 E364.62061
M204 S3000
M205 X10 Y10
G0 F6000 X344.078 Y99.362
M204 S1000
